; generated by Slic3r 1.33.8-prusa3d-win64 on 2017-03-09 at 05:45:09

; external perimeters extrusion width = 0.40mm
; perimeters extrusion width = 0.67mm
; infill extrusion width = 0.67mm
; solid infill extrusion width = 0.67mm
; top infill extrusion width = 0.67mm

M107
M190 S85 ; set bed temperature and wait for it to be reached
M104 S230 ; set temperature
G28 ; home all axes
G1 Z5 F5000 ; lift nozzle

M109 S230 ; set temperature and wait for it to be reached
G21 ; set units to millimeters
G90 ; use absolute coordinates
M82 ; use absolute distances for extrusion
G92 E0
G1 E-2.00000 F1800.00000
G92 E0
G1 Z0.350 F7800.000
G1 X84.656 Y91.865 F7800.000
G1 E2.00000 F1800.00000
G1 F1080
G1 X85.174 Y91.426 E2.05867
G1 X85.734 Y91.030 E2.11794
G1 X86.321 Y90.687 E2.17661
G1 X86.941 Y90.393 E2.23588
G1 X87.577 Y90.156 E2.29455
G1 X88.239 Y89.974 E2.35382
G1 X88.907 Y89.851 E2.41249
G1 X89.590 Y89.785 E2.47176
G1 X110.194 Y89.777 E4.25164
G1 X110.913 Y89.827 E4.31390
G1 X111.631 Y89.945 E4.37676
G1 X112.329 Y90.126 E4.43902
G1 X113.013 Y90.374 E4.50188
G1 X113.806 Y90.755 E4.57789
G1 X114.557 Y91.227 E4.65451
G1 X115.250 Y91.780 E4.73112
G1 X115.877 Y92.408 E4.80774
G1 X116.429 Y93.102 E4.88436
G1 X116.900 Y93.854 E4.96097
G1 X117.283 Y94.654 E5.03759
G1 X117.573 Y95.492 E5.11420
G1 X117.686 Y95.935 E5.15372
G1 X117.774 Y96.391 E5.19384
G1 X117.834 Y96.852 E5.23396
G1 X117.868 Y97.315 E5.27408
G1 X117.871 Y102.587 E5.72948
G1 X117.817 Y103.299 E5.79114
G1 X117.700 Y104.003 E5.85280
G1 X117.518 Y104.693 E5.91447
G1 X117.275 Y105.364 E5.97613
G1 X117.067 Y105.825 E6.01984
G1 X116.826 Y106.278 E6.06415
G1 X116.556 Y106.714 E6.10846
G1 X116.262 Y107.126 E6.15217
G1 X115.942 Y107.518 E6.19588
G1 X115.593 Y107.894 E6.24019
G1 X115.220 Y108.247 E6.28450
G1 X114.826 Y108.574 E6.32880
G1 X114.416 Y108.871 E6.37251
G1 X113.982 Y109.145 E6.41682
G1 X113.531 Y109.389 E6.46113
G1 X113.066 Y109.604 E6.50544
G1 X112.594 Y109.786 E6.54915
G1 X112.104 Y109.939 E6.59346
G1 X111.605 Y110.060 E6.63777
G1 X111.100 Y110.148 E6.68208
G1 X110.569 Y110.205 E6.72818
G1 X110.029 Y110.226 E6.77488
G1 X89.834 Y110.224 E8.51944
G1 X89.108 Y110.175 E8.58230
G1 X88.389 Y110.059 E8.64516
G1 X87.685 Y109.878 E8.70802
G1 X87.000 Y109.632 E8.77088
G1 X86.532 Y109.421 E8.81519
G1 X86.079 Y109.180 E8.85949
G1 X85.637 Y108.907 E8.90440
G1 X85.220 Y108.609 E8.94871
G1 X84.822 Y108.284 E8.99302
G1 X84.447 Y107.934 E9.03733
G1 X84.095 Y107.561 E9.08164
G1 X83.764 Y107.160 E9.12654
G1 X83.465 Y106.744 E9.17085
G1 X83.192 Y106.309 E9.21516
G1 X82.946 Y105.851 E9.26007
G1 X82.733 Y105.385 E9.30438
G1 X82.551 Y104.905 E9.34869
G1 X82.399 Y104.408 E9.39359
G1 X82.281 Y103.909 E9.43790
G1 X82.196 Y103.403 E9.48221
G1 X82.146 Y102.927 E9.52353
G1 X82.126 Y102.450 E9.56484
G1 X82.126 Y97.545 E9.98852
G1 X82.173 Y96.784 E10.05437
G1 X82.293 Y96.031 E10.12022
G1 X82.438 Y95.453 E10.17171
G1 X82.628 Y94.881 E10.22380
G1 X82.861 Y94.325 E10.27589
G1 X83.137 Y93.788 E10.32797
G1 X83.448 Y93.280 E10.37947
G1 X83.802 Y92.792 E10.43155
G1 X84.192 Y92.332 E10.48364
G1 X84.612 Y91.906 E10.53534
G1 X85.046 Y92.356 F7800.000
G1 F1080
G1 X85.525 Y91.945 E10.58991
G1 X86.039 Y91.577 E10.64449
G1 X86.583 Y91.255 E10.69906
G1 X87.158 Y90.979 E10.75420
G1 X87.750 Y90.757 E10.80877
G1 X88.365 Y90.586 E10.86392
G1 X88.992 Y90.470 E10.91907
G1 X89.621 Y90.409 E10.97364
G1 X110.160 Y90.401 E12.74780
G1 X110.810 Y90.445 E12.80410
G1 X111.454 Y90.546 E12.86039
G1 X112.079 Y90.704 E12.91611
G1 X112.694 Y90.918 E12.97240
G1 X113.441 Y91.268 E13.04362
G1 X114.143 Y91.700 E13.11483
G1 X114.792 Y92.209 E13.18605
G1 X115.383 Y92.793 E13.25783
G1 X115.900 Y93.435 E13.32905
G1 X116.340 Y94.132 E13.40026
G1 X116.698 Y94.875 E13.47148
G1 X116.971 Y95.660 E13.54327
G1 X117.076 Y96.072 E13.58004
G1 X117.158 Y96.497 E13.61738
G1 X117.214 Y96.925 E13.65473
G1 X117.244 Y97.357 E13.69207
G1 X117.247 Y102.537 E14.13959
G1 X117.202 Y103.181 E14.19531
G1 X117.101 Y103.811 E14.25045
G1 X116.943 Y104.436 E14.30617
G1 X116.731 Y105.045 E14.36189
G1 X116.541 Y105.478 E14.40268
G1 X116.320 Y105.903 E14.44405
G1 X116.072 Y106.312 E14.48542
G1 X115.797 Y106.704 E14.52678
G1 X115.501 Y107.073 E14.56757
G1 X115.178 Y107.426 E14.60894
G1 X114.831 Y107.756 E14.65030
G1 X114.464 Y108.063 E14.69167
G1 X114.077 Y108.346 E14.73303
G1 X113.678 Y108.598 E14.77382
G1 X113.258 Y108.828 E14.81519
G1 X112.823 Y109.029 E14.85655
G1 X112.383 Y109.198 E14.89734
G1 X111.925 Y109.340 E14.93871
G1 X111.460 Y109.452 E14.98007
G1 X110.988 Y109.533 E15.02144
G1 X110.505 Y109.583 E15.06338
G1 X110.020 Y109.601 E15.10532
G1 X89.867 Y109.600 E16.84617
G1 X89.217 Y109.558 E16.90246
G1 X88.573 Y109.459 E16.95876
G1 X87.940 Y109.302 E17.01505
G1 X87.318 Y109.086 E17.07192
G1 X86.885 Y108.898 E17.11271
G1 X86.460 Y108.678 E17.15408
G1 X86.050 Y108.430 E17.19544
G1 X85.657 Y108.156 E17.23681
G1 X85.283 Y107.857 E17.27817
G1 X84.935 Y107.538 E17.31896
G1 X84.604 Y107.192 E17.36033
G1 X84.296 Y106.826 E17.40169
G1 X84.017 Y106.445 E17.44248
G1 X83.759 Y106.041 E17.48385
G1 X83.529 Y105.621 E17.52521
G1 X83.328 Y105.187 E17.56658
G1 X83.155 Y104.740 E17.60794
G1 X83.012 Y104.283 E17.64931
G1 X82.900 Y103.817 E17.69067
G1 X82.819 Y103.345 E17.73204
G1 X82.771 Y102.896 E17.77111
G1 X82.751 Y102.437 E17.81075
G1 X82.751 Y97.576 E18.23069
G1 X82.788 Y96.905 E18.28871
G1 X82.890 Y96.235 E18.34730
G1 X83.018 Y95.698 E18.39498
G1 X83.189 Y95.166 E18.44324
G1 X83.397 Y94.655 E18.49092
G1 X83.648 Y94.155 E18.53917
G1 X83.932 Y93.682 E18.58686
G1 X84.255 Y93.227 E18.63511
G1 X84.613 Y92.797 E18.68337
G1 X85.002 Y92.397 E18.73161
G1 X85.423 Y92.859 F7800.000
G1 F1080
G1 X85.864 Y92.474 E18.78213
G1 X86.342 Y92.126 E18.83320
G1 X86.843 Y91.825 E18.88372
G1 X87.375 Y91.566 E18.93479
G1 X87.921 Y91.359 E18.98531
G1 X88.490 Y91.198 E19.03637
G1 X89.071 Y91.089 E19.08744
G1 X89.660 Y91.033 E19.13851
G1 X110.127 Y91.025 E20.90654
G1 X110.704 Y91.062 E20.95651
G1 X111.276 Y91.148 E21.00648
G1 X111.839 Y91.284 E21.05645
G1 X112.387 Y91.469 E21.10642
G1 X113.081 Y91.784 E21.17230
G1 X113.735 Y92.177 E21.23818
G1 X114.339 Y92.643 E21.30406
G1 X114.890 Y93.179 E21.37049
G1 X115.371 Y93.771 E21.43636
G1 X115.781 Y94.414 E21.50224
G1 X116.115 Y95.100 E21.56812
G1 X116.369 Y95.825 E21.63455
G1 X116.541 Y96.601 E21.70317
G1 X116.620 Y97.398 E21.77234
G1 X116.623 Y102.491 E22.21230
G1 X116.587 Y103.062 E22.26172
G1 X116.500 Y103.634 E22.31169
G1 X116.365 Y104.190 E22.36112
G1 X116.180 Y104.738 E22.41109
G1 X116.006 Y105.147 E22.44953
G1 X115.808 Y105.539 E22.48742
G1 X115.584 Y105.916 E22.52532
G1 X115.332 Y106.283 E22.56376
G1 X115.056 Y106.632 E22.60221
G1 X114.757 Y106.962 E22.64065
G1 X114.437 Y107.271 E22.67909
G1 X114.101 Y107.554 E22.71699
G1 X113.743 Y107.817 E22.75543
G1 X113.367 Y108.056 E22.79388
G1 X112.982 Y108.267 E22.83177
G1 X112.579 Y108.454 E22.87021
G1 X112.163 Y108.613 E22.90866
G1 X111.738 Y108.744 E22.94710
G1 X111.311 Y108.845 E22.98500
G1 X110.872 Y108.918 E23.02344
G1 X110.448 Y108.961 E23.06024
G1 X110.016 Y108.976 E23.09758
G1 X89.892 Y108.975 E24.83596
G1 X89.314 Y108.940 E24.88593
G1 X88.742 Y108.855 E24.93590
G1 X88.180 Y108.721 E24.98587
G1 X87.625 Y108.536 E25.03639
G1 X87.221 Y108.365 E25.07429
G1 X86.829 Y108.168 E25.11218
G1 X86.451 Y107.945 E25.15008
G1 X86.089 Y107.698 E25.18797
G1 X85.743 Y107.427 E25.22586
G1 X85.417 Y107.135 E25.26376
G1 X85.106 Y106.816 E25.30220
G1 X84.821 Y106.482 E25.34010
G1 X84.559 Y106.131 E25.37799
G1 X84.321 Y105.762 E25.41589
G1 X84.107 Y105.379 E25.45378
G1 X83.918 Y104.976 E25.49222
G1 X83.757 Y104.568 E25.53012
G1 X83.624 Y104.150 E25.56801
G1 X83.519 Y103.724 E25.60591
G1 X83.442 Y103.292 E25.64380
G1 X83.395 Y102.862 E25.68115
G1 X83.376 Y102.431 E25.71849
G1 X83.375 Y97.604 E26.13539
G1 X83.405 Y97.020 E26.18591
G1 X83.487 Y96.435 E26.23698
G1 X83.600 Y95.939 E26.28091
G1 X83.750 Y95.453 E26.32484
G1 X83.937 Y94.980 E26.36878
G1 X84.159 Y94.523 E26.41271
G1 X84.416 Y94.084 E26.45664
G1 X84.706 Y93.666 E26.50058
G1 X85.027 Y93.272 E26.54451
G1 X85.380 Y92.901 E26.58875
G1 E24.58875 F1800.00000
G92 E0
G1 X93.216 Y99.249 F7800.000
G1 E2.00000 F1800.00000
G1 F540
G1 X108.400 Y99.249 E3.31168
G1 X108.400 Y100.751 E3.44148
G1 X91.600 Y100.751 E4.89275
G1 X91.600 Y99.249 E5.02254
G1 X93.156 Y99.249 E5.15695
G1 X93.156 Y98.624 F7800.000
G1 F900
G1 X109.025 Y98.624 E6.52780
G1 X109.025 Y101.376 E6.76555
G1 X90.975 Y101.376 E8.32478
G1 X90.975 Y98.624 E8.56254
G1 X93.096 Y98.624 E8.74574
G1 X93.096 Y97.999 F7800.000
G1 F630
G1 X109.650 Y97.999 E10.17575
G1 X109.650 Y102.001 E10.52146
G1 X90.350 Y102.001 E12.18866
G1 X90.350 Y97.999 E12.53437
G1 X93.036 Y97.999 E12.76637
G1 X93.395 Y98.264 F7800.000
G1 X91.912 Y100.000 F7800.000
G1 F360
G1 X108.088 Y100.000 E14.56086
M106 S255
G1 E12.56086 F1800.00000
G92 E0
G1 Z0.550 F7800.000
G1 X96.185 Y98.811 F7800.000
G1 E2.00000 F1800.00000
G1 F600.000
G1 X108.679 Y98.811 E2.62010
G1 X108.679 Y101.189 E2.73811
G1 X91.321 Y101.189 E3.59963
G1 X91.321 Y98.811 E3.71764
G1 X96.125 Y98.811 E3.95608
G1 X96.125 Y98.183 F7800.000
G1 F600.000
G1 X109.307 Y98.183 E4.61034
G1 X109.307 Y101.817 E4.79072
G1 X90.693 Y101.817 E5.71461
G1 X90.693 Y98.183 E5.89499
G1 X96.065 Y98.183 E6.16164
G1 X96.065 Y97.690 F7800.000
G1 F600.000
G1 X109.800 Y97.690 E6.54905
G1 X109.800 Y102.310 E6.67935
G1 X90.200 Y102.310 E7.23221
G1 X90.200 Y97.690 E7.36251
G1 X96.005 Y97.690 E7.52626
G1 X96.337 Y97.984 F7800.000
G1 X92.856 Y99.063 F7800.000
G1 F600.000
G1 X91.855 Y100.064 E7.59727
G1 X91.855 Y100.655 E7.62691
G1 X92.162 Y100.655 E7.64230
G1 X93.471 Y99.345 E7.73518
G1 X94.369 Y99.345 E7.78022
G1 X93.060 Y100.655 E7.87309
G1 X93.958 Y100.655 E7.91813
G1 X95.267 Y99.345 E8.01101
G1 X96.165 Y99.345 E8.05604
G1 X94.856 Y100.655 E8.14892
G1 X95.754 Y100.655 E8.19395
G1 X97.063 Y99.345 E8.28683
G1 X97.961 Y99.345 E8.33186
G1 X96.651 Y100.655 E8.42474
G1 X97.549 Y100.655 E8.46977
G1 X98.859 Y99.345 E8.56265
G1 X99.757 Y99.345 E8.60769
G1 X98.447 Y100.655 E8.70056
G1 X99.345 Y100.655 E8.74560
G1 X100.655 Y99.345 E8.83848
G1 X101.553 Y99.345 E8.88351
G1 X100.243 Y100.655 E8.97639
G1 X101.141 Y100.655 E9.02142
G1 X102.450 Y99.345 E9.11430
G1 X103.348 Y99.345 E9.15933
G1 X102.039 Y100.655 E9.25221
G1 X102.937 Y100.655 E9.29724
G1 X104.246 Y99.345 E9.39012
G1 X105.144 Y99.345 E9.43516
G1 X103.835 Y100.655 E9.52803
G1 X104.733 Y100.655 E9.57307
G1 X106.042 Y99.345 E9.66595
G1 X106.940 Y99.345 E9.71098
G1 X105.631 Y100.655 E9.80386
G1 X106.528 Y100.655 E9.84889
G1 X107.838 Y99.345 E9.94177
G1 X108.145 Y99.345 E9.95717
G1 X108.145 Y99.936 E9.98680
G1 X107.144 Y100.937 E10.05783
G1 E8.05783 F1800.00000
G92 E0
G1 Z0.750 F7800.000
G1 X92.686 Y101.304 F7800.000
G1 E2.00000 F1800.00000
G1 F600.000
G1 X91.321 Y101.304 E2.06775
G1 X91.321 Y98.696 E2.19722
G1 X108.679 Y98.696 E3.05874
G1 X108.679 Y101.304 E3.18821
G1 X92.746 Y101.304 E3.97900
G1 X92.746 Y101.933 F7800.000
G1 F601.617
G1 X90.693 Y101.933 E4.08092
G1 X90.693 Y98.067 E4.27276
G1 X109.307 Y98.067 E5.19665
G1 X109.307 Y101.933 E5.38849
G1 X92.806 Y101.933 E6.20748
G1 X92.806 Y102.425 F7800.000
G1 F600.000
G1 X90.200 Y102.425 E6.28100
G1 X90.200 Y97.575 E6.41781
G1 X109.800 Y97.575 E6.97067
G1 X109.800 Y102.425 E7.10748
G1 X92.866 Y102.425 E7.58513
G1 X92.575 Y102.099 F7800.000
G1 X91.572 Y99.752 F7800.000
G1 F600.000
G1 X92.590 Y100.770 E7.65820
G1 X93.499 Y100.770 E7.70434
G1 X91.959 Y99.230 E7.81494
G1 X92.867 Y99.230 E7.86108
G1 X94.408 Y100.770 E7.97168
G1 X95.317 Y100.770 E8.01782
G1 X93.776 Y99.230 E8.12842
G1 X94.685 Y99.230 E8.17456
G1 X96.226 Y100.770 E8.28515
G1 X97.135 Y100.770 E8.33130
G1 X95.594 Y99.230 E8.44189
G1 X96.503 Y99.230 E8.48803
G1 X98.043 Y100.770 E8.59863
G1 X98.952 Y100.770 E8.64477
G1 X97.412 Y99.230 E8.75537
G1 X98.321 Y99.230 E8.80151
G1 X99.861 Y100.770 E8.91211
G1 X100.770 Y100.770 E8.95825
G1 X99.230 Y99.230 E9.06884
G1 X100.139 Y99.230 E9.11499
G1 X101.679 Y100.770 E9.22558
G1 X102.588 Y100.770 E9.27172
G1 X101.048 Y99.230 E9.38232
G1 X101.956 Y99.230 E9.42846
G1 X103.497 Y100.770 E9.53906
G1 X104.406 Y100.770 E9.58520
G1 X102.865 Y99.230 E9.69580
G1 X103.774 Y99.230 E9.74194
G1 X105.315 Y100.770 E9.85253
G1 X106.224 Y100.770 E9.89868
G1 X104.683 Y99.230 E10.00927
G1 X105.592 Y99.230 E10.05542
G1 X107.132 Y100.770 E10.16601
G1 X108.041 Y100.770 E10.21215
G1 X106.501 Y99.230 E10.32275
G1 X107.410 Y99.230 E10.36889
G1 X108.428 Y100.248 E10.44197
G1 E8.44197 F1800.00000
G92 E0
G1 Z0.950 F7800.000
G1 X103.999 Y101.420 F7800.000
G1 E2.00000 F1800.00000
G1 F600.000
G1 X91.321 Y101.420 E2.62927
G1 X91.321 Y98.580 E2.77020
G1 X108.679 Y98.580 E3.63172
G1 X108.679 Y101.420 E3.77265
G1 X104.059 Y101.420 E4.00193
G1 X104.059 Y102.048 F7800.000
G1 F620.061
G1 X90.693 Y102.048 E4.66535
G1 X90.693 Y97.952 E4.86865
G1 X109.307 Y97.952 E5.79255
G1 X109.307 Y102.048 E5.99585
G1 X104.119 Y102.048 E6.25333
G1 X104.119 Y102.541 F7800.000
G1 F600.000
G1 X90.200 Y102.541 E6.64596
G1 X90.200 Y97.459 E6.78929
G1 X109.800 Y97.459 E7.34214
G1 X109.800 Y102.541 E7.48547
G1 X104.179 Y102.541 E7.64401
G1 X103.842 Y102.253 F7800.000
G1 X107.111 Y101.168 F7800.000
G1 F600.000
G1 X108.145 Y100.134 E7.71917
G1 X108.145 Y99.214 E7.76644
G1 X106.473 Y100.886 E7.88789
G1 X105.554 Y100.886 E7.93516
G1 X107.325 Y99.114 E8.06388
G1 X106.405 Y99.114 E8.11114
G1 X104.634 Y100.886 E8.23986
G1 X103.714 Y100.886 E8.28712
G1 X105.485 Y99.114 E8.41584
G1 X104.565 Y99.114 E8.46310
G1 X102.794 Y100.886 E8.59182
G1 X101.874 Y100.886 E8.63908
G1 X103.645 Y99.114 E8.76780
G1 X102.725 Y99.114 E8.81506
G1 X100.954 Y100.886 E8.94378
G1 X100.034 Y100.886 E8.99105
G1 X101.806 Y99.114 E9.11976
G1 X100.886 Y99.114 E9.16703
G1 X99.114 Y100.886 E9.29574
G1 X98.194 Y100.886 E9.34301
G1 X99.966 Y99.114 E9.47172
G1 X99.046 Y99.114 E9.51899
G1 X97.274 Y100.886 E9.64770
G1 X96.355 Y100.886 E9.69497
G1 X98.126 Y99.114 E9.82368
G1 X97.206 Y99.114 E9.87095
G1 X95.435 Y100.886 E9.99966
G1 X94.515 Y100.886 E10.04693
G1 X96.286 Y99.114 E10.17565
G1 X95.366 Y99.114 E10.22291
G1 X93.595 Y100.886 E10.35163
G1 X92.675 Y100.886 E10.39889
G1 X94.446 Y99.114 E10.52761
G1 X93.526 Y99.114 E10.57487
G1 X91.855 Y100.786 E10.69632
G1 X91.855 Y99.866 E10.74359
G1 X92.889 Y98.832 E10.81874
G1 E8.81874 F1800.00000
G92 E0
G1 Z1.150 F7800.000
G1 X108.531 Y101.535 F7800.000
G1 E2.00000 F1800.00000
G1 F608.516
G1 X91.321 Y101.535 E2.85418
G1 X91.321 Y98.465 E3.00657
G1 X108.679 Y98.465 E3.86809
G1 X108.679 Y101.535 E4.02049
G1 X108.591 Y101.535 E4.02485
G1 X108.591 Y102.164 F7800.000
G1 F608.516
G1 X90.693 Y102.164 E4.91319
G1 X90.693 Y97.836 E5.12796
G1 X109.307 Y97.836 E6.05185
G1 X109.307 Y102.164 E6.26661
G1 X108.651 Y102.164 E6.29918
G1 X108.651 Y102.656 F7800.000
G1 F600.000
G1 X90.200 Y102.656 E6.81963
G1 X90.200 Y97.344 E6.96947
G1 X109.800 Y97.344 E7.52232
G1 X109.800 Y102.656 E7.67217
G1 X108.711 Y102.656 E7.70289
G1 X108.320 Y102.432 F7800.000
G1 X108.428 Y99.986 F7800.000
G1 F600.000
G1 X107.440 Y98.999 E7.77219
G1 X106.552 Y98.999 E7.81629
G1 X108.145 Y100.592 E7.92812
G1 X108.145 Y101.001 E7.94843
G1 X107.665 Y101.001 E7.97223
G1 X105.663 Y98.999 E8.11277
G1 X104.775 Y98.999 E8.15687
G1 X106.777 Y101.001 E8.29741
G1 X105.888 Y101.001 E8.34152
G1 X103.886 Y98.999 E8.48206
G1 X102.997 Y98.999 E8.52616
G1 X105.000 Y101.001 E8.66671
G1 X104.111 Y101.001 E8.71081
G1 X102.109 Y98.999 E8.85135
G1 X101.220 Y98.999 E8.89545
G1 X103.223 Y101.001 E9.03600
G1 X102.334 Y101.001 E9.08010
G1 X100.332 Y98.999 E9.22064
G1 X99.443 Y98.999 E9.26475
G1 X101.445 Y101.001 E9.40529
G1 X100.557 Y101.001 E9.44939
G1 X98.554 Y98.999 E9.58994
G1 X97.666 Y98.999 E9.63404
G1 X99.668 Y101.001 E9.77458
G1 X98.780 Y101.001 E9.81868
G1 X96.777 Y98.999 E9.95923
G1 X95.889 Y98.999 E10.00333
G1 X97.891 Y101.001 E10.14387
G1 X97.002 Y101.001 E10.18798
G1 X95.000 Y98.999 E10.32852
G1 X94.112 Y98.999 E10.37262
G1 X96.114 Y101.001 E10.51316
G1 X95.225 Y101.001 E10.55727
G1 X93.223 Y98.999 E10.69781
G1 X92.334 Y98.999 E10.74191
G1 X94.337 Y101.001 E10.88246
G1 X93.448 Y101.001 E10.92656
G1 X91.855 Y99.408 E11.03838
