; generated by Slic3r 1.33.8-prusa3d-win64 on 2017-03-08 at 20:54:07

; external perimeters extrusion width = 0.40mm
; perimeters extrusion width = 0.67mm
; infill extrusion width = 0.67mm
; solid infill extrusion width = 0.67mm
; top infill extrusion width = 0.67mm

M107
M190 S85 ; set bed temperature and wait for it to be reached
M104 S230 ; set temperature
G28 ; home all axes
G1 Z5 F5000 ; lift nozzle

M109 S230 ; set temperature and wait for it to be reached
G21 ; set units to millimeters
G90 ; use absolute coordinates
M82 ; use absolute distances for extrusion
G92 E0
G1 E-2.00000 F1800.00000
G92 E0
G1 Z0.350 F7800.000
G1 X31.804 Y57.128 F7800.000
G1 E2.00000 F1800.00000
G1 F1080
G1 X168.055 Y57.126 E13.76978
G1 X168.554 Y57.145 E13.81290
G1 X169.058 Y57.197 E13.85661
G1 X169.556 Y57.281 E13.90032
G1 X170.049 Y57.397 E13.94403
G1 X170.533 Y57.544 E13.98774
G1 X171.000 Y57.719 E14.03085
G1 X171.462 Y57.927 E14.07456
G1 X171.909 Y58.164 E14.11827
G1 X172.334 Y58.425 E14.16138
G1 X172.742 Y58.713 E14.20449
G1 X173.131 Y59.026 E14.24760
G1 X173.499 Y59.363 E14.29072
G1 X173.845 Y59.723 E14.33383
G1 X174.167 Y60.104 E14.37694
G1 X174.465 Y60.504 E14.42005
G1 X174.737 Y60.923 E14.46316
G1 X174.982 Y61.358 E14.50627
G1 X175.198 Y61.807 E14.54939
G1 X175.386 Y62.269 E14.59250
G1 X175.544 Y62.743 E14.63561
G1 X175.672 Y63.225 E14.67872
G1 X175.769 Y63.715 E14.72183
G1 X175.836 Y64.216 E14.76554
G1 X175.869 Y64.714 E14.80865
G1 X175.874 Y135.111 E20.88973
G1 X175.852 Y135.603 E20.93224
G1 X175.798 Y136.099 E20.97535
G1 X175.712 Y136.590 E21.01846
G1 X175.596 Y137.076 E21.06158
G1 X175.452 Y137.546 E21.10409
G1 X175.275 Y138.013 E21.14720
G1 X175.070 Y138.468 E21.19031
G1 X174.836 Y138.909 E21.23342
G1 X174.571 Y139.340 E21.27713
G1 X174.274 Y139.758 E21.32144
G1 X173.956 Y140.152 E21.36515
G1 X173.613 Y140.523 E21.40886
G1 X173.246 Y140.872 E21.45257
G1 X172.853 Y141.202 E21.49688
G1 X172.445 Y141.500 E21.54059
G1 X172.018 Y141.772 E21.58430
G1 X171.575 Y142.017 E21.62801
G1 X171.117 Y142.232 E21.67172
G1 X170.646 Y142.417 E21.71543
G1 X170.157 Y142.573 E21.75974
G1 X169.666 Y142.696 E21.80345
G1 X169.169 Y142.787 E21.84716
G1 X168.666 Y142.846 E21.89087
G1 X168.154 Y142.873 E21.93518
G1 X31.945 Y142.874 E33.70137
G1 X31.446 Y142.855 E33.74449
G1 X30.942 Y142.803 E33.78820
G1 X30.444 Y142.719 E33.83191
G1 X29.951 Y142.603 E33.87562
G1 X29.467 Y142.456 E33.91933
G1 X29.000 Y142.281 E33.96244
G1 X28.538 Y142.073 E34.00615
G1 X28.091 Y141.836 E34.04986
G1 X27.672 Y141.578 E34.09237
G1 X27.269 Y141.295 E34.13488
G1 X26.885 Y140.987 E34.17740
G1 X26.521 Y140.656 E34.21991
G1 X26.179 Y140.303 E34.26242
G1 X25.859 Y139.929 E34.30494
G1 X25.563 Y139.536 E34.34745
G1 X25.292 Y139.125 E34.38996
G1 X25.047 Y138.698 E34.43248
G1 X24.830 Y138.256 E34.47499
G1 X24.641 Y137.802 E34.51750
G1 X24.480 Y137.337 E34.56002
G1 X24.349 Y136.862 E34.60253
G1 X24.247 Y136.381 E34.64504
G1 X24.176 Y135.894 E34.68755
G1 X24.136 Y135.403 E34.73007
G1 X24.133 Y64.660 E40.84107
G1 X24.199 Y63.929 E40.90452
G1 X24.332 Y63.206 E40.96798
G1 X24.533 Y62.500 E41.03144
G1 X24.798 Y61.815 E41.09490
G1 X25.126 Y61.158 E41.15835
G1 X25.518 Y60.528 E41.22241
G1 X25.963 Y59.943 E41.28587
G1 X26.461 Y59.403 E41.34932
G1 X27.006 Y58.911 E41.41278
G1 X27.596 Y58.472 E41.47624
G1 X28.229 Y58.087 E41.54029
G1 X28.890 Y57.766 E41.60375
G1 X29.577 Y57.507 E41.66721
G1 X30.286 Y57.314 E41.73067
G1 X31.010 Y57.188 E41.79412
G1 X31.744 Y57.129 E41.85779
G1 X31.801 Y57.753 F7800.000
G1 F1080
G1 X168.047 Y57.750 E53.62712
G1 X168.505 Y57.768 E53.66677
G1 X168.962 Y57.814 E53.70641
G1 X169.414 Y57.890 E53.74605
G1 X169.868 Y57.995 E53.78627
G1 X170.307 Y58.127 E53.82591
G1 X170.744 Y58.289 E53.86612
G1 X171.163 Y58.476 E53.90577
G1 X171.575 Y58.693 E53.94598
G1 X171.967 Y58.932 E53.98563
G1 X172.348 Y59.199 E54.02584
G1 X172.706 Y59.486 E54.06548
G1 X173.051 Y59.799 E54.10570
G1 X173.370 Y60.129 E54.14534
G1 X173.671 Y60.484 E54.18556
G1 X173.949 Y60.857 E54.22578
G1 X174.203 Y61.247 E54.26599
G1 X174.428 Y61.647 E54.30563
G1 X174.630 Y62.067 E54.34585
G1 X174.802 Y62.492 E54.38549
G1 X174.949 Y62.934 E54.42571
G1 X175.067 Y63.384 E54.46593
G1 X175.156 Y63.835 E54.50557
G1 X175.216 Y64.296 E54.54579
G1 X175.246 Y64.754 E54.58543
G1 X175.249 Y135.093 E60.66152
G1 X175.229 Y135.545 E60.70059
G1 X175.180 Y136.001 E60.74023
G1 X175.103 Y136.454 E60.77987
G1 X174.998 Y136.894 E60.81894
G1 X174.866 Y137.326 E60.85801
G1 X174.706 Y137.756 E60.89765
G1 X174.521 Y138.169 E60.93672
G1 X174.307 Y138.575 E60.97636
G1 X174.061 Y138.978 E61.01715
G1 X173.793 Y139.359 E61.05737
G1 X173.501 Y139.722 E61.09758
G1 X173.182 Y140.070 E61.13837
G1 X172.846 Y140.392 E61.17859
G1 X172.485 Y140.696 E61.21938
G1 X172.110 Y140.972 E61.25960
G1 X171.713 Y141.227 E61.30039
G1 X171.305 Y141.452 E61.34061
G1 X170.878 Y141.654 E61.38140
G1 X170.445 Y141.825 E61.42161
G1 X169.996 Y141.970 E61.46240
G1 X169.538 Y142.085 E61.50319
G1 X169.080 Y142.169 E61.54341
G1 X168.611 Y142.224 E61.58420
G1 X168.139 Y142.248 E61.62499
G1 X31.953 Y142.250 E73.38916
G1 X31.495 Y142.232 E73.42880
G1 X31.038 Y142.186 E73.46844
G1 X30.586 Y142.110 E73.50808
G1 X30.132 Y142.005 E73.54830
G1 X29.693 Y141.873 E73.58794
G1 X29.256 Y141.711 E73.62816
G1 X28.837 Y141.524 E73.66780
G1 X28.425 Y141.307 E73.70802
G1 X28.039 Y141.072 E73.74709
G1 X27.663 Y140.809 E73.78673
G1 X27.309 Y140.527 E73.82580
G1 X26.968 Y140.219 E73.86544
G1 X26.653 Y139.896 E73.90451
G1 X26.354 Y139.547 E73.94415
G1 X26.077 Y139.181 E73.98379
G1 X25.825 Y138.798 E74.02343
G1 X25.600 Y138.406 E74.06250
G1 X25.397 Y137.994 E74.10214
G1 X25.223 Y137.576 E74.14121
G1 X25.074 Y137.142 E74.18085
G1 X24.952 Y136.700 E74.22049
G1 X24.860 Y136.257 E74.25956
G1 X24.795 Y135.803 E74.29920
G1 X24.758 Y135.345 E74.33885
G1 X24.756 Y64.714 E80.44021
G1 X24.813 Y64.045 E80.49822
G1 X24.934 Y63.377 E80.55681
G1 X25.117 Y62.724 E80.61540
G1 X25.359 Y62.091 E80.67399
G1 X25.660 Y61.483 E80.73258
G1 X26.017 Y60.906 E80.79117
G1 X26.426 Y60.365 E80.84976
G1 X26.883 Y59.864 E80.90835
G1 X27.386 Y59.408 E80.96694
G1 X27.928 Y59.002 E81.02553
G1 X28.507 Y58.647 E81.08412
G1 X29.116 Y58.349 E81.14271
G1 X29.750 Y58.108 E81.20130
G1 X30.397 Y57.930 E81.25932
G1 X31.065 Y57.811 E81.31791
G1 X31.741 Y57.755 E81.37649
G1 X31.806 Y58.378 F7800.000
G1 F1080
G1 X168.038 Y58.375 E93.14464
G1 X168.457 Y58.391 E93.18089
G1 X168.875 Y58.433 E93.21714
G1 X169.289 Y58.502 E93.25339
G1 X169.698 Y58.596 E93.28963
G1 X170.100 Y58.717 E93.32588
G1 X170.493 Y58.862 E93.36213
G1 X170.877 Y59.032 E93.39838
G1 X171.249 Y59.226 E93.43462
G1 X171.608 Y59.444 E93.47087
G1 X171.958 Y59.687 E93.50767
G1 X172.291 Y59.952 E93.54446
G1 X172.606 Y60.239 E93.58126
G1 X172.898 Y60.540 E93.61751
G1 X173.175 Y60.864 E93.65431
G1 X173.430 Y61.205 E93.69110
G1 X173.663 Y61.562 E93.72790
G1 X173.872 Y61.933 E93.76470
G1 X174.057 Y62.316 E93.80149
G1 X174.215 Y62.705 E93.83774
G1 X174.349 Y63.109 E93.87454
G1 X174.458 Y63.521 E93.91133
G1 X174.539 Y63.939 E93.94813
G1 X174.594 Y64.362 E93.98493
G1 X174.621 Y64.787 E94.02172
G1 X174.624 Y135.076 E100.09354
G1 X174.607 Y135.489 E100.12923
G1 X174.563 Y135.900 E100.16493
G1 X174.495 Y136.308 E100.20063
G1 X174.399 Y136.716 E100.23688
G1 X174.279 Y137.112 E100.27258
G1 X174.135 Y137.499 E100.30828
G1 X173.965 Y137.883 E100.34452
G1 X173.774 Y138.249 E100.38022
G1 X173.549 Y138.619 E100.41757
G1 X173.302 Y138.973 E100.45491
G1 X173.035 Y139.305 E100.49171
G1 X172.744 Y139.625 E100.52906
G1 X172.437 Y139.920 E100.56585
G1 X172.106 Y140.199 E100.60320
G1 X171.759 Y140.455 E100.64054
G1 X171.395 Y140.689 E100.67789
G1 X171.022 Y140.895 E100.71469
G1 X170.631 Y141.080 E100.75203
G1 X170.229 Y141.239 E100.78938
G1 X169.817 Y141.371 E100.82672
G1 X169.398 Y141.476 E100.86407
G1 X168.973 Y141.553 E100.90141
G1 X168.549 Y141.602 E100.93821
G1 X168.118 Y141.624 E100.97556
G1 X31.962 Y141.625 E112.73712
G1 X31.543 Y141.609 E112.77337
G1 X31.125 Y141.567 E112.80962
G1 X30.711 Y141.498 E112.84587
G1 X30.302 Y141.404 E112.88211
G1 X29.900 Y141.283 E112.91836
G1 X29.507 Y141.138 E112.95461
G1 X29.123 Y140.968 E112.99086
G1 X28.751 Y140.774 E113.02710
G1 X28.392 Y140.556 E113.06335
G1 X28.048 Y140.317 E113.09960
G1 X27.719 Y140.056 E113.13585
G1 X27.407 Y139.775 E113.17209
G1 X27.114 Y139.474 E113.20834
G1 X26.841 Y139.156 E113.24459
G1 X26.588 Y138.821 E113.28084
G1 X26.357 Y138.471 E113.31708
G1 X26.149 Y138.107 E113.35333
G1 X25.964 Y137.730 E113.38958
G1 X25.803 Y137.342 E113.42583
G1 X25.667 Y136.945 E113.46207
G1 X25.557 Y136.541 E113.49832
G1 X25.472 Y136.130 E113.53457
G1 X25.414 Y135.714 E113.57082
G1 X25.382 Y135.296 E113.60707
G1 X25.380 Y64.758 E119.70029
G1 X25.431 Y64.138 E119.75410
G1 X25.540 Y63.531 E119.80737
G1 X25.705 Y62.936 E119.86063
G1 X25.924 Y62.360 E119.91389
G1 X26.196 Y61.807 E119.96715
G1 X26.521 Y61.276 E120.02096
G1 X26.891 Y60.782 E120.07423
G1 X27.310 Y60.321 E120.12804
G1 X27.765 Y59.905 E120.18130
G1 X28.262 Y59.530 E120.23511
G1 X28.787 Y59.206 E120.28838
G1 X29.340 Y58.933 E120.34164
G1 X29.921 Y58.710 E120.39545
G1 X30.515 Y58.544 E120.44871
G1 X31.128 Y58.433 E120.50252
G1 X31.746 Y58.380 E120.55610
G1 E118.55610 F1800.00000
G92 E0
G1 X137.527 Y77.347 F7800.000
G1 E2.00000 F1800.00000
G1 F900
G1 X137.883 Y76.030 E2.11781
G1 X138.351 Y74.813 E2.23042
G1 X138.956 Y73.624 E2.34572
G1 X139.683 Y72.505 E2.46102
G1 X140.523 Y71.467 E2.57632
G1 X141.467 Y70.523 E2.69163
G1 X142.505 Y69.683 E2.80693
G1 X143.624 Y68.956 E2.92223
G1 X144.813 Y68.351 E3.03753
G1 X146.059 Y67.872 E3.15283
G1 X147.349 Y67.527 E3.26813
G1 X148.667 Y67.318 E3.38343
G1 X149.969 Y67.250 E3.49604
G1 X151.330 Y67.318 E3.61381
G1 X152.651 Y67.527 E3.72929
G1 X153.941 Y67.872 E3.84466
G1 X155.187 Y68.351 E3.95993
G1 X156.376 Y68.956 E4.07522
G1 X157.496 Y69.683 E4.19054
G1 X158.533 Y70.524 E4.30586
G1 X159.476 Y71.467 E4.42112
G1 X160.317 Y72.505 E4.53647
G1 X161.043 Y73.624 E4.65176
G1 X161.650 Y74.813 E4.76705
G1 X162.128 Y76.060 E4.88236
G1 X162.473 Y77.348 E4.99762
G1 X162.682 Y78.667 E5.11293
G1 X162.752 Y80.000 E5.22825
G1 X162.682 Y81.333 E5.34357
G1 X162.473 Y82.652 E5.45888
G1 X162.128 Y83.940 E5.57414
G1 X161.650 Y85.187 E5.68945
G1 X161.043 Y86.376 E5.80474
G1 X160.317 Y87.495 E5.92002
G1 X159.476 Y88.533 E6.03538
G1 X158.533 Y89.476 E6.15064
G1 X157.496 Y90.317 E6.26596
G1 X156.376 Y91.044 E6.38128
G1 X155.187 Y91.649 E6.49656
G1 X153.941 Y92.128 E6.61183
G1 X152.651 Y92.473 E6.72720
G1 X151.363 Y92.677 E6.83982
G1 X150.002 Y92.752 E6.95758
G1 X148.667 Y92.682 E7.07307
G1 X147.349 Y92.473 E7.18836
G1 X146.059 Y92.128 E7.30366
G1 X144.813 Y91.649 E7.41897
G1 X143.624 Y91.044 E7.53427
G1 X142.505 Y90.317 E7.64957
G1 X141.467 Y89.477 E7.76487
G1 X140.523 Y88.533 E7.88018
G1 X139.683 Y87.495 E7.99548
G1 X138.956 Y86.376 E8.11078
G1 X138.351 Y85.187 E8.22608
G1 X137.872 Y83.941 E8.34138
G1 X137.527 Y82.651 E8.45669
G1 X137.318 Y81.333 E8.57198
G1 X137.248 Y80.000 E8.68729
G1 X137.318 Y78.667 E8.80259
G1 X137.518 Y77.406 E8.91288
G1 X138.135 Y77.504 F7800.000
G1 F900
G1 X138.478 Y76.224 E9.02731
G1 X138.922 Y75.068 E9.13432
G1 X139.498 Y73.937 E9.24397
G1 X140.190 Y72.872 E9.35361
G1 X140.988 Y71.886 E9.46325
G1 X141.886 Y70.988 E9.57290
G1 X142.872 Y70.190 E9.68254
G1 X143.937 Y69.498 E9.79219
G1 X145.068 Y68.922 E9.90183
G1 X146.253 Y68.467 E10.01148
G1 X147.479 Y68.139 E10.12112
G1 X148.732 Y67.940 E10.23076
G1 X149.970 Y67.875 E10.33778
G1 X151.266 Y67.940 E10.44989
G1 X152.521 Y68.139 E10.55965
G1 X153.748 Y68.467 E10.66936
G1 X154.932 Y68.922 E10.77897
G1 X156.063 Y69.498 E10.88860
G1 X157.128 Y70.190 E10.99827
G1 X158.114 Y70.989 E11.10792
G1 X159.011 Y71.886 E11.21753
G1 X159.811 Y72.872 E11.32722
G1 X160.502 Y73.937 E11.43684
G1 X161.078 Y75.068 E11.54648
G1 X161.532 Y76.253 E11.65612
G1 X161.861 Y77.479 E11.76574
G1 X162.060 Y78.732 E11.87539
G1 X162.126 Y80.000 E11.98505
G1 X162.060 Y81.268 E12.09470
G1 X161.861 Y82.521 E12.20435
G1 X161.532 Y83.747 E12.31397
G1 X161.078 Y84.932 E12.42362
G1 X160.502 Y86.063 E12.53326
G1 X159.811 Y87.128 E12.64288
G1 X159.011 Y88.114 E12.75257
G1 X158.114 Y89.011 E12.86218
G1 X157.128 Y89.810 E12.97183
G1 X156.063 Y90.502 E13.08149
G1 X154.932 Y91.078 E13.19113
G1 X153.748 Y91.533 E13.30074
G1 X152.521 Y91.861 E13.41045
G1 X151.297 Y92.055 E13.51748
G1 X150.001 Y92.126 E13.62958
G1 X148.732 Y92.060 E13.73934
G1 X147.479 Y91.861 E13.84898
G1 X146.253 Y91.533 E13.95862
G1 X145.068 Y91.078 E14.06827
G1 X143.937 Y90.502 E14.17791
G1 X142.872 Y89.810 E14.28756
G1 X141.886 Y89.012 E14.39720
G1 X140.988 Y88.114 E14.50685
G1 X140.190 Y87.128 E14.61649
G1 X139.498 Y86.063 E14.72613
G1 X138.922 Y84.932 E14.83577
G1 X138.467 Y83.747 E14.94542
G1 X138.139 Y82.521 E15.05506
G1 X137.940 Y81.268 E15.16471
G1 X137.874 Y80.000 E15.27435
G1 X137.940 Y78.732 E15.38400
G1 X138.125 Y77.563 E15.48627
G1 X138.743 Y77.661 F7800.000
G1 F630
G1 X139.073 Y76.419 E15.59732
G1 X139.494 Y75.322 E15.69874
G1 X140.040 Y74.250 E15.80273
G1 X140.696 Y73.240 E15.90672
G1 X141.453 Y72.305 E16.01070
G1 X142.305 Y71.453 E16.11469
G1 X143.240 Y70.696 E16.21867
G1 X144.250 Y70.040 E16.32266
G1 X145.322 Y69.494 E16.42664
G1 X146.446 Y69.062 E16.53063
G1 X147.609 Y68.751 E16.63462
G1 X148.798 Y68.563 E16.73860
G1 X149.970 Y68.501 E16.84003
G1 X151.201 Y68.562 E16.94648
G1 X152.391 Y68.751 E17.05053
G1 X153.554 Y69.062 E17.15457
G1 X154.678 Y69.494 E17.25851
G1 X155.750 Y70.040 E17.36250
G1 X156.760 Y70.696 E17.46650
G1 X157.696 Y71.453 E17.57049
G1 X158.546 Y72.305 E17.67446
G1 X159.305 Y73.240 E17.77848
G1 X159.960 Y74.250 E17.88244
G1 X160.506 Y75.322 E17.98642
G1 X160.937 Y76.446 E18.09041
G1 X161.249 Y77.609 E18.19438
G1 X161.438 Y78.798 E18.29837
G1 X161.500 Y80.000 E18.40236
G1 X161.438 Y81.202 E18.50635
G1 X161.249 Y82.391 E18.61034
G1 X160.937 Y83.554 E18.71432
G1 X160.506 Y84.678 E18.81830
G1 X159.960 Y85.750 E18.92229
G1 X159.305 Y86.760 E19.02625
G1 X158.546 Y87.695 E19.13027
G1 X157.696 Y88.546 E19.23423
G1 X156.760 Y89.304 E19.33822
G1 X155.750 Y89.960 E19.44222
G1 X154.678 Y90.506 E19.54621
G1 X153.554 Y90.938 E19.65016
G1 X152.391 Y91.249 E19.75420
G1 X151.231 Y91.433 E19.85565
G1 X150.000 Y91.501 E19.96210
G1 X148.798 Y91.437 E20.06612
G1 X147.609 Y91.249 E20.17011
G1 X146.446 Y90.938 E20.27409
G1 X145.322 Y90.506 E20.37808
G1 X144.250 Y89.960 E20.48207
G1 X143.240 Y89.304 E20.58605
G1 X142.305 Y88.547 E20.69004
G1 X141.453 Y87.695 E20.79403
G1 X140.696 Y86.760 E20.89801
G1 X140.040 Y85.750 E21.00200
G1 X139.494 Y84.678 E21.10598
G1 X139.062 Y83.554 E21.20997
G1 X138.751 Y82.391 E21.31396
G1 X138.563 Y81.202 E21.41794
G1 X138.500 Y80.000 E21.52193
G1 X138.563 Y78.798 E21.62591
G1 X138.733 Y77.720 E21.72018
G1 X138.445 Y77.394 F7800.000
G1 X138.114 Y77.474 F7800.000
G1 X138.114 Y77.474 F7800.000
G1 X136.078 Y76.928 F7800.000
G1 X136.007 Y75.592 F7800.000
G1 X135.999 Y75.307 F7800.000
G1 X135.999 Y75.219 F7800.000
G1 X135.999 Y75.219 F7800.000
G1 X135.997 Y73.943 F7800.000
G1 X136.006 Y73.584 F7800.000
G1 X136.051 Y72.697 F7800.000
G1 X136.061 Y72.184 F7800.000
G1 X136.056 Y71.703 F7800.000
G1 X135.995 Y70.685 F7800.000
G1 X132.685 Y70.000 F7800.000
G1 X67.315 Y70.000 F7800.000
G1 X64.005 Y70.685 F7800.000
G1 X63.944 Y71.703 F7800.000
G1 X63.939 Y72.184 F7800.000
G1 X63.949 Y72.697 F7800.000
G1 X63.994 Y73.583 F7800.000
G1 X64.003 Y73.943 F7800.000
G1 X64.001 Y75.307 F7800.000
G1 X63.993 Y75.592 F7800.000
G1 X63.921 Y76.928 F7800.000
G1 X63.903 Y77.154 F7800.000
G1 X63.764 Y78.464 F7800.000
G1 X63.740 Y78.643 F7800.000
G1 X63.535 Y79.927 F7800.000
G1 X62.151 Y80.000 F7800.000
G1 X62.752 Y80.000 F7800.000
G1 F900
G1 X62.682 Y81.330 E21.83525
G1 X62.483 Y82.614 E21.94747
G1 X62.128 Y83.941 E22.06610
G1 X61.649 Y85.187 E22.18141
G1 X61.044 Y86.376 E22.29670
G1 X60.317 Y87.495 E22.41201
G1 X59.477 Y88.533 E22.52731
G1 X58.533 Y89.477 E22.64261
G1 X57.495 Y90.317 E22.75791
G1 X56.376 Y91.044 E22.87322
G1 X55.187 Y91.649 E22.98851
G1 X53.941 Y92.128 E23.10382
G1 X52.651 Y92.473 E23.21912
G1 X51.333 Y92.682 E23.33442
G1 X50.000 Y92.752 E23.44972
