; generated by Slic3r 1.33.8-prusa3d-win64 on 2017-03-09 at 06:06:57

; external perimeters extrusion width = 0.40mm
; perimeters extrusion width = 0.67mm
; infill extrusion width = 0.67mm
; solid infill extrusion width = 0.67mm
; top infill extrusion width = 0.67mm

M107
M190 S85 ; set bed temperature and wait for it to be reached
M104 S230 ; set temperature
G28 ; home all axes
G1 Z5 F5000 ; lift nozzle

M109 S230 ; set temperature and wait for it to be reached
G21 ; set units to millimeters
G90 ; use absolute coordinates
M82 ; use absolute distances for extrusion
G92 E0
G1 E-2.00000 F1800.00000
G92 E0
G1 Z0.350 F7800.000
G1 X84.276 Y79.991 F7800.000
G1 E2.00000 F1800.00000
G1 F1080
G1 X84.784 Y79.500 E2.06106
G1 X85.334 Y79.056 E2.12213
G1 X85.921 Y78.663 E2.18319
G1 X86.542 Y78.324 E2.24426
G1 X87.190 Y78.043 E2.30532
G1 X87.861 Y77.820 E2.36639
G1 X88.549 Y77.659 E2.42745
G1 X89.256 Y77.559 E2.48911
G1 X89.990 Y77.524 E2.55257
G1 X110.326 Y77.531 E4.30924
G1 X110.810 Y77.566 E4.35115
G1 X111.291 Y77.631 E4.39307
G1 X111.767 Y77.725 E4.43498
G1 X112.236 Y77.848 E4.47689
G1 X112.697 Y78.000 E4.51881
G1 X113.147 Y78.181 E4.56072
G1 X113.586 Y78.388 E4.60264
G1 X114.017 Y78.626 E4.64515
G1 X114.426 Y78.886 E4.68707
G1 X114.819 Y79.171 E4.72898
G1 X115.193 Y79.480 E4.77089
G1 X115.548 Y79.811 E4.81281
G1 X115.882 Y80.163 E4.85472
G1 X116.193 Y80.535 E4.89664
G1 X116.485 Y80.931 E4.93915
G1 X116.748 Y81.339 E4.98107
G1 X116.978 Y81.750 E5.02178
G1 X117.184 Y82.174 E5.06250
G1 X117.364 Y82.610 E5.10322
G1 X117.518 Y83.056 E5.14393
G1 X117.645 Y83.510 E5.18465
G1 X117.744 Y83.970 E5.22537
G1 X117.816 Y84.436 E5.26609
G1 X117.859 Y84.906 E5.30680
G1 X118.872 Y105.537 E7.09113
G1 X118.867 Y106.091 E7.13903
G1 X118.781 Y107.624 E7.27162
G1 X118.728 Y108.064 E7.30994
G1 X118.514 Y109.406 E7.42729
G1 X118.387 Y109.995 E7.47938
G1 X117.975 Y111.507 E7.61475
G1 X117.825 Y111.939 E7.65427
G1 X117.275 Y113.354 E7.78540
G1 X117.078 Y113.775 E7.82552
G1 X116.365 Y115.155 E7.95971
G1 X115.324 Y116.769 E8.12566
G1 X115.035 Y117.151 E8.16697
G1 X114.047 Y118.357 E8.30163
G1 X112.668 Y119.742 E8.47050
G1 X112.332 Y120.031 E8.50882
G1 X111.125 Y120.998 E8.64237
G1 X109.566 Y122.020 E8.80345
G1 X109.112 Y122.274 E8.84835
G1 X107.724 Y122.972 E8.98253
G1 X105.934 Y123.667 E9.14840
G1 X105.477 Y123.807 E9.18972
G1 X104.015 Y124.192 E9.32029
G1 X102.340 Y124.474 E9.46700
G1 X101.721 Y124.544 E9.52089
G1 X100.405 Y124.614 E9.63465
G1 X99.595 Y124.614 E9.70469
G1 X98.348 Y124.548 E9.81255
G1 X97.872 Y124.503 E9.85387
G1 X96.365 Y124.268 E9.98560
G1 X95.735 Y124.132 E10.04128
G1 X94.092 Y123.676 E10.18860
G1 X92.678 Y123.141 E10.31916
G1 X92.257 Y122.963 E10.35868
G1 X90.542 Y122.084 E10.52515
G1 X88.875 Y120.997 E10.69703
G1 X87.368 Y119.774 E10.86469
G1 X85.990 Y118.397 E11.03297
G1 X84.752 Y116.875 E11.20247
G1 X83.733 Y115.322 E11.36291
G1 X83.467 Y114.843 E11.41021
G1 X82.733 Y113.373 E11.55218
G1 X82.145 Y111.860 E11.69233
G1 X81.935 Y111.200 E11.75220
G1 X81.536 Y109.663 E11.88935
G1 X81.268 Y108.036 E12.03185
G1 X81.199 Y107.367 E12.08993
G1 X81.126 Y105.642 E12.23904
G1 X82.135 Y85.006 E14.02383
G1 X82.182 Y84.453 E14.07173
G1 X82.280 Y83.844 E14.12501
G1 X82.426 Y83.245 E14.17830
G1 X82.620 Y82.652 E14.23218
G1 X82.858 Y82.083 E14.28547
G1 X83.139 Y81.534 E14.33876
G1 X83.467 Y81.003 E14.39264
G1 X83.831 Y80.505 E14.44593
G1 X84.234 Y80.035 E14.49942
G1 X84.691 Y80.462 F7800.000
G1 F1080
G1 X85.166 Y79.996 E14.55686
G1 X85.682 Y79.576 E14.61430
G1 X86.228 Y79.208 E14.67117
G1 X86.811 Y78.888 E14.72861
G1 X87.414 Y78.626 E14.78548
G1 X88.046 Y78.418 E14.84292
G1 X88.687 Y78.269 E14.89979
G1 X89.346 Y78.179 E14.95723
G1 X89.990 Y78.149 E15.01295
G1 X110.279 Y78.155 E16.76557
G1 X110.730 Y78.186 E16.80464
G1 X111.179 Y78.246 E16.84371
G1 X111.623 Y78.333 E16.88278
G1 X112.054 Y78.446 E16.92127
G1 X112.483 Y78.588 E16.96034
G1 X112.897 Y78.753 E16.99883
G1 X113.300 Y78.944 E17.03732
G1 X113.696 Y79.162 E17.07639
G1 X114.072 Y79.401 E17.11489
G1 X114.438 Y79.666 E17.15395
G1 X114.787 Y79.954 E17.19302
G1 X115.117 Y80.263 E17.23209
G1 X115.423 Y80.587 E17.27058
G1 X115.712 Y80.935 E17.30965
G1 X115.980 Y81.300 E17.34872
G1 X116.224 Y81.681 E17.38779
G1 X116.434 Y82.058 E17.42513
G1 X116.622 Y82.448 E17.46248
G1 X116.786 Y82.848 E17.49982
G1 X116.926 Y83.257 E17.53717
G1 X117.041 Y83.673 E17.57451
G1 X117.133 Y84.102 E17.61243
G1 X117.198 Y84.530 E17.64977
G1 X117.237 Y84.961 E17.68712
G1 X118.247 Y105.554 E19.46817
G1 X118.243 Y106.066 E19.51240
G1 X118.159 Y107.565 E19.64212
G1 X117.900 Y109.289 E19.79272
G1 X117.781 Y109.842 E19.84155
G1 X117.377 Y111.326 E19.97443
G1 X116.699 Y113.111 E20.13941
G1 X116.518 Y113.497 E20.17618
G1 X115.818 Y114.852 E20.30792
G1 X114.811 Y116.413 E20.46840
G1 X114.546 Y116.763 E20.50632
G1 X113.580 Y117.941 E20.63794
G1 X112.241 Y119.285 E20.80180
G1 X110.754 Y120.495 E20.96739
G1 X109.229 Y121.494 E21.12492
G1 X108.822 Y121.720 E21.16514
G1 X107.460 Y122.406 E21.29687
G1 X105.722 Y123.079 E21.45786
G1 X105.308 Y123.205 E21.49520
G1 X103.866 Y123.585 E21.62404
G1 X102.238 Y123.857 E21.76665
G1 X101.663 Y123.921 E21.81663
G1 X100.366 Y123.991 E21.92877
G1 X99.620 Y123.990 E21.99322
G1 X98.391 Y123.925 E22.09958
G1 X97.954 Y123.884 E22.13750
G1 X96.474 Y123.653 E22.26688
G1 X95.883 Y123.524 E22.31915
G1 X94.292 Y123.084 E22.46177
G1 X92.517 Y122.395 E22.62620
G1 X90.858 Y121.545 E22.78720
G1 X89.241 Y120.491 E22.95395
G1 X87.784 Y119.308 E23.11608
G1 X86.447 Y117.972 E23.27938
G1 X85.251 Y116.498 E23.44327
G1 X84.256 Y114.979 E23.60020
G1 X84.021 Y114.554 E23.64214
G1 X83.304 Y113.118 E23.78077
G1 X82.733 Y111.647 E23.91708
G1 X82.537 Y111.032 E23.97280
G1 X82.148 Y109.538 E24.10623
G1 X81.888 Y107.955 E24.24480
G1 X81.823 Y107.333 E24.29879
G1 X81.751 Y105.670 E24.44256
G1 X82.759 Y85.043 E26.22654
G1 X82.797 Y84.573 E26.26733
G1 X82.884 Y84.014 E26.31616
G1 X83.015 Y83.457 E26.36556
G1 X83.188 Y82.919 E26.41439
G1 X83.404 Y82.390 E26.46380
G1 X83.659 Y81.885 E26.51263
G1 X83.952 Y81.402 E26.56146
G1 X84.282 Y80.942 E26.61029
G1 X84.651 Y80.506 E26.65968
G1 X85.109 Y80.931 F7800.000
G1 F1080
G1 X85.545 Y80.496 E26.71294
G1 X86.020 Y80.103 E26.76621
G1 X86.530 Y79.756 E26.81947
G1 X87.070 Y79.457 E26.87273
G1 X87.635 Y79.211 E26.92600
G1 X88.220 Y79.018 E26.97926
G1 X88.821 Y78.880 E27.03252
G1 X89.432 Y78.798 E27.08578
G1 X89.991 Y78.774 E27.13411
G1 X110.235 Y78.778 E28.88284
G1 X110.648 Y78.806 E28.91853
G1 X111.057 Y78.859 E28.95423
G1 X111.463 Y78.938 E28.98993
G1 X111.863 Y79.041 E29.02563
G1 X112.256 Y79.170 E29.06133
G1 X112.640 Y79.323 E29.09703
G1 X113.014 Y79.499 E29.13273
G1 X113.376 Y79.699 E29.16842
G1 X113.724 Y79.920 E29.20412
G1 X114.059 Y80.163 E29.23982
G1 X114.377 Y80.426 E29.27552
G1 X114.679 Y80.709 E29.31122
G1 X114.962 Y81.010 E29.34692
G1 X115.226 Y81.328 E29.38262
G1 X115.470 Y81.661 E29.41831
G1 X115.696 Y82.015 E29.45456
G1 X116.057 Y82.715 E29.52264
G1 X116.335 Y83.460 E29.59126
G1 X116.520 Y84.226 E29.65933
G1 X116.614 Y85.014 E29.72795
G1 X117.622 Y105.565 E31.50528
G1 X117.618 Y106.041 E31.54647
G1 X117.536 Y107.513 E31.67382
G1 X117.286 Y109.174 E31.81886
G1 X117.175 Y109.690 E31.86444
G1 X116.781 Y111.139 E31.99418
G1 X116.126 Y112.863 E32.15352
G1 X115.275 Y114.543 E32.31620
G1 X114.297 Y116.056 E32.47178
G1 X113.109 Y117.531 E32.63545
G1 X111.815 Y118.828 E32.79371
G1 X110.378 Y119.996 E32.95362
G1 X108.892 Y120.967 E33.10694
G1 X108.531 Y121.167 E33.14263
G1 X107.201 Y121.837 E33.27128
G1 X105.516 Y122.489 E33.42734
G1 X103.724 Y122.977 E33.58780
G1 X102.142 Y123.240 E33.72630
G1 X101.586 Y123.300 E33.77462
G1 X100.118 Y123.374 E33.90157
G1 X98.503 Y123.305 E34.04120
G1 X97.821 Y123.234 E34.10050
G1 X96.558 Y123.033 E34.21097
G1 X96.030 Y122.917 E34.25765
G1 X94.497 Y122.493 E34.39505
G1 X92.777 Y121.826 E34.55441
G1 X91.174 Y121.006 E34.70993
G1 X89.607 Y119.985 E34.87150
G1 X88.205 Y118.846 E35.02756
G1 X86.909 Y117.551 E35.18583
G1 X85.751 Y116.122 E35.34467
G1 X84.783 Y114.642 E35.49741
G1 X84.574 Y114.264 E35.53475
G1 X83.877 Y112.869 E35.66945
G1 X83.322 Y111.440 E35.80192
G1 X83.141 Y110.870 E35.85353
G1 X82.758 Y109.405 E35.98436
G1 X82.506 Y107.867 E36.11898
G1 X82.447 Y107.298 E36.16841
G1 X82.375 Y105.696 E36.30691
G1 X83.414 Y84.681 E38.12449
G1 X83.490 Y84.172 E38.16897
G1 X83.605 Y83.670 E38.21345
G1 X83.758 Y83.178 E38.25794
G1 X83.950 Y82.700 E38.30242
G1 X84.178 Y82.238 E38.34690
G1 X84.441 Y81.796 E38.39138
G1 X84.737 Y81.375 E38.43586
G1 X85.068 Y80.975 E38.48066
G1 E36.48066 F1800.00000
G92 E0
G1 X96.751 Y100.123 F7800.000
G1 E2.00000 F1800.00000
G1 F540
G1 X103.249 Y100.123 E2.56125
G1 X106.497 Y105.750 E3.12251
G1 X103.249 Y111.377 E3.68376
G1 X96.751 Y111.377 E4.24501
G1 X93.503 Y105.750 E4.80626
G1 X96.721 Y100.175 E5.36233
G1 X97.112 Y100.748 F7800.000
G1 F540
G1 X102.888 Y100.748 E5.86126
G1 X105.776 Y105.750 E6.36018
G1 X102.888 Y110.752 E6.85910
G1 X97.112 Y110.752 E7.35802
G1 X94.224 Y105.750 E7.85695
G1 X97.082 Y100.800 E8.35069
G1 X97.473 Y101.373 F7800.000
G1 F540
G1 X102.527 Y101.373 E8.78728
G1 X105.054 Y105.750 E9.22387
G1 X102.527 Y110.127 E9.66046
G1 X97.473 Y110.127 E10.09705
G1 X94.946 Y105.750 E10.53364
G1 X97.443 Y101.425 E10.96505
G1 X97.473 Y100.973 F7800.000
G1 X92.411 Y100.209 F7800.000
G1 F900
G1 X93.016 Y99.462 E11.04812
G1 X93.712 Y98.766 E11.13310
G1 X94.476 Y98.147 E11.21808
G1 X95.301 Y97.611 E11.30305
G1 X96.177 Y97.164 E11.38802
G1 X97.096 Y96.812 E11.47300
G1 X98.046 Y96.557 E11.55798
G1 X99.017 Y96.404 E11.64289
G1 X100.009 Y96.352 E11.72873
G1 X100.982 Y96.403 E11.81290
G1 X101.954 Y96.557 E11.89787
G1 X102.904 Y96.812 E11.98285
G1 X103.823 Y97.164 E12.06783
G1 X104.699 Y97.611 E12.15280
G1 X105.524 Y98.147 E12.23777
G1 X106.288 Y98.766 E12.32275
G1 X106.984 Y99.462 E12.40773
G1 X107.603 Y100.226 E12.49271
G1 X108.139 Y101.051 E12.57768
G1 X108.586 Y101.927 E12.66265
G1 X108.938 Y102.846 E12.74763
G1 X109.193 Y103.796 E12.83261
G1 X109.347 Y104.768 E12.91759
G1 X109.398 Y105.750 E13.00256
G1 X109.347 Y106.732 E13.08753
G1 X109.193 Y107.704 E13.17251
G1 X108.938 Y108.654 E13.25749
G1 X108.586 Y109.573 E13.34246
G1 X108.139 Y110.449 E13.42744
G1 X107.603 Y111.274 E13.51241
G1 X106.984 Y112.038 E13.59739
G1 X106.295 Y112.727 E13.68156
G1 X105.523 Y113.354 E13.76740
G1 X104.699 Y113.889 E13.85231
G1 X103.823 Y114.336 E13.93729
G1 X102.904 Y114.688 E14.02226
G1 X101.954 Y114.943 E14.10724
G1 X100.982 Y115.097 E14.19222
G1 X100.000 Y115.148 E14.27719
G1 X99.018 Y115.097 E14.36216
G1 X98.046 Y114.943 E14.44714
G1 X97.096 Y114.688 E14.53212
G1 X96.177 Y114.336 E14.61709
G1 X95.301 Y113.889 E14.70207
G1 X94.476 Y113.353 E14.78704
G1 X93.712 Y112.734 E14.87202
G1 X93.016 Y112.038 E14.95700
G1 X92.397 Y111.274 E15.04198
G1 X91.866 Y110.457 E15.12614
G1 X91.414 Y109.572 E15.21198
G1 X91.062 Y108.654 E15.29689
G1 X90.807 Y107.704 E15.38187
G1 X90.653 Y106.732 E15.46685
G1 X90.602 Y105.750 E15.55182
G1 X90.653 Y104.768 E15.63680
G1 X90.807 Y103.796 E15.72177
G1 X91.062 Y102.846 E15.80675
G1 X91.414 Y101.927 E15.89173
G1 X91.861 Y101.051 E15.97670
G1 X92.376 Y100.258 E16.05840
G1 X91.852 Y99.917 F7800.000
G1 F900
G1 X92.551 Y99.043 E16.15510
G1 X93.293 Y98.301 E16.24574
G1 X94.108 Y97.641 E16.33638
G1 X94.988 Y97.069 E16.42701
G1 X95.923 Y96.593 E16.51764
G1 X96.902 Y96.217 E16.60827
G1 X97.916 Y95.945 E16.69891
G1 X98.952 Y95.781 E16.78951
G1 X100.010 Y95.727 E16.88100
G1 X101.048 Y95.781 E16.97080
G1 X102.084 Y95.945 E17.06144
G1 X103.098 Y96.217 E17.15207
G1 X104.077 Y96.593 E17.24271
G1 X105.012 Y97.069 E17.33334
G1 X105.892 Y97.641 E17.42397
G1 X106.707 Y98.301 E17.51461
G1 X107.449 Y99.043 E17.60524
G1 X108.109 Y99.858 E17.69588
G1 X108.681 Y100.738 E17.78651
G1 X109.157 Y101.673 E17.87714
G1 X109.533 Y102.652 E17.96777
G1 X109.805 Y103.666 E18.05841
G1 X109.969 Y104.702 E18.14905
G1 X110.024 Y105.750 E18.23968
G1 X109.969 Y106.798 E18.33031
G1 X109.805 Y107.834 E18.42094
G1 X109.533 Y108.848 E18.51158
G1 X109.157 Y109.827 E18.60221
G1 X108.681 Y110.762 E18.69285
G1 X108.109 Y111.642 E18.78348
G1 X107.449 Y112.457 E18.87411
G1 X106.714 Y113.192 E18.96392
G1 X105.891 Y113.860 E19.05542
G1 X105.012 Y114.431 E19.14601
G1 X104.077 Y114.907 E19.23664
G1 X103.098 Y115.283 E19.32728
G1 X102.084 Y115.555 E19.41791
G1 X101.048 Y115.719 E19.50855
G1 X100.000 Y115.774 E19.59918
G1 X98.952 Y115.719 E19.68981
G1 X97.916 Y115.555 E19.78044
G1 X96.902 Y115.283 E19.87108
G1 X95.923 Y114.907 E19.96171
G1 X94.988 Y114.431 E20.05235
G1 X94.108 Y113.859 E20.14298
G1 X93.293 Y113.199 E20.23361
G1 X92.551 Y112.457 E20.32425
G1 X91.891 Y111.642 E20.41489
G1 X91.324 Y110.770 E20.50468
G1 X90.843 Y109.827 E20.59618
G1 X90.467 Y108.848 E20.68678
G1 X90.195 Y107.834 E20.77741
G1 X90.031 Y106.798 E20.86805
G1 X89.976 Y105.750 E20.95868
G1 X90.031 Y104.702 E21.04931
G1 X90.195 Y103.666 E21.13995
G1 X90.467 Y102.652 E21.23058
G1 X90.843 Y101.673 E21.32121
G1 X91.319 Y100.738 E21.41185
G1 X91.819 Y99.968 E21.49120
G1 X91.295 Y99.627 F7800.000
G1 F630
G1 X91.384 Y99.490 E21.50530
G1 X92.086 Y98.624 E21.60160
G1 X92.874 Y97.836 E21.69789
G1 X93.740 Y97.134 E21.79419
G1 X94.675 Y96.527 E21.89048
G1 X95.668 Y96.021 E21.98677
G1 X96.709 Y95.622 E22.08306
G1 X97.786 Y95.333 E22.17935
G1 X98.887 Y95.159 E22.27563
G1 X100.010 Y95.101 E22.37279
G1 X101.113 Y95.159 E22.46822
G1 X102.214 Y95.333 E22.56451
G1 X103.291 Y95.622 E22.66081
G1 X104.332 Y96.021 E22.75710
G1 X105.325 Y96.527 E22.85339
G1 X106.260 Y97.134 E22.94968
G1 X107.126 Y97.836 E23.04597
G1 X107.914 Y98.624 E23.14227
G1 X108.616 Y99.490 E23.23856
G1 X109.223 Y100.425 E23.33485
G1 X109.729 Y101.418 E23.43114
G1 X110.128 Y102.459 E23.52743
G1 X110.417 Y103.536 E23.62372
G1 X110.591 Y104.637 E23.72001
G1 X110.650 Y105.750 E23.81630
G1 X110.591 Y106.863 E23.91259
G1 X110.417 Y107.964 E24.00889
G1 X110.128 Y109.041 E24.10518
G1 X109.729 Y110.082 E24.20147
G1 X109.223 Y111.075 E24.29776
G1 X108.616 Y112.010 E24.39405
G1 X107.914 Y112.876 E24.49034
G1 X107.133 Y113.657 E24.58578
G1 X106.259 Y114.366 E24.68294
G1 X105.325 Y114.973 E24.77922
G1 X104.332 Y115.479 E24.87551
G1 X103.291 Y115.878 E24.97180
G1 X102.214 Y116.167 E25.06809
G1 X101.113 Y116.341 E25.16438
G1 X100.000 Y116.400 E25.26067
G1 X98.887 Y116.341 E25.35696
G1 X97.786 Y116.167 E25.45325
G1 X96.709 Y115.878 E25.54955
G1 X95.668 Y115.479 E25.64584
G1 X94.675 Y114.973 E25.74213
G1 X93.740 Y114.366 E25.83842
G1 X92.874 Y113.664 E25.93471
G1 X92.086 Y112.876 E26.03101
G1 X91.384 Y112.010 E26.12730
G1 X90.783 Y111.083 E26.22273
G1 X90.271 Y110.081 E26.31989
G1 X89.872 Y109.041 E26.41617
G1 X89.583 Y107.964 E26.51246
G1 X89.409 Y106.863 E26.60875
G1 X89.350 Y105.750 E26.70504
G1 X89.409 Y104.637 E26.80133
G1 X89.583 Y103.536 E26.89762
G1 X89.872 Y102.459 E26.99392
G1 X90.271 Y101.418 E27.09021
G1 X90.777 Y100.425 E27.18650
G1 X91.263 Y99.678 E27.26350
G1 X91.459 Y99.633 F7800.000
G1 X93.715 Y106.617 F7800.000
G1 F450
G1 X91.283 Y104.186 E27.56396
G1 X91.328 Y103.907 E27.58865
G1 X91.448 Y103.456 E27.62938
G1 X93.201 Y105.210 E27.84605
G1 X93.529 Y104.643 E27.90324
G1 X91.659 Y102.773 E28.13433
G1 X91.900 Y102.144 E28.19323
G1 X91.908 Y102.128 E28.19474
G1 X93.856 Y104.076 E28.43545
G1 X94.183 Y103.509 E28.49264
G1 X92.210 Y101.536 E28.73650
G1 X92.322 Y101.317 E28.75800
G1 X92.543 Y100.976 E28.79357
G1 X94.510 Y102.942 E29.03666
G1 X94.838 Y102.376 E29.09386
G1 X92.905 Y100.443 E29.33274
G1 X93.305 Y99.949 E29.38829
G1 X95.165 Y101.809 E29.61817
G1 X95.492 Y101.242 E29.67536
G1 X93.739 Y99.489 E29.89199
G1 X94.067 Y99.161 E29.93255
G1 X94.199 Y99.055 E29.94731
G1 X95.819 Y100.675 E30.14759
G1 X96.147 Y100.109 E30.20479
G1 X94.693 Y98.655 E30.38446
G1 X95.225 Y98.293 E30.44071
G1 X96.524 Y99.592 E30.60120
G1 X97.418 Y99.592 E30.67933
G1 X95.786 Y97.960 E30.88104
G1 X96.378 Y97.658 E30.93912
G1 X98.312 Y99.592 E31.17812
G1 X99.206 Y99.592 E31.25625
G1 X97.023 Y97.409 E31.52607
G1 X97.260 Y97.318 E31.54828
G1 X97.706 Y97.198 E31.58864
G1 X100.100 Y99.592 E31.88449
G1 X100.994 Y99.592 E31.96262
G1 X98.436 Y97.033 E32.27883
