; generated by Slic3r 1.33.8-prusa3d-win64 on 2017-03-08 at 20:03:55

; external perimeters extrusion width = 0.40mm
; perimeters extrusion width = 0.67mm
; infill extrusion width = 0.67mm
; solid infill extrusion width = 0.67mm
; top infill extrusion width = 0.67mm

M107
M190 S85 ; set bed temperature and wait for it to be reached
M104 S230 ; set temperature
G28 ; home all axes
G1 Z5 F5000 ; lift nozzle

M109 S230 ; set temperature and wait for it to be reached
G21 ; set units to millimeters
G90 ; use absolute coordinates
M82 ; use absolute distances for extrusion
G92 E0
G1 E-2.00000 F1800.00000
G92 E0
G1 Z0.350 F7800.000
G1 X76.545 Y79.321 F7800.000
G1 E2.00000 F1800.00000
G1 F1080
G1 X77.109 Y78.828 E2.06465
G1 X77.717 Y78.392 E2.12931
G1 X78.364 Y78.015 E2.19396
G1 X79.043 Y77.702 E2.25862
G1 X79.749 Y77.454 E2.32327
G1 X80.476 Y77.274 E2.38792
G1 X81.216 Y77.164 E2.45258
G1 X81.964 Y77.125 E2.51723
G1 X118.374 Y77.134 E5.66247
G1 X119.037 Y77.194 E5.71995
G1 X119.692 Y77.309 E5.77742
G1 X120.335 Y77.480 E5.83489
G1 X120.968 Y77.706 E5.89297
G1 X121.573 Y77.983 E5.95044
G1 X122.153 Y78.309 E6.00792
G1 X122.703 Y78.684 E6.06539
G1 X123.225 Y79.108 E6.12346
G1 X123.718 Y79.585 E6.18273
G1 X124.167 Y80.104 E6.24200
G1 X124.570 Y80.659 E6.30127
G1 X124.926 Y81.253 E6.36114
G1 X125.226 Y81.871 E6.42041
G1 X125.471 Y82.511 E6.47968
G1 X125.659 Y83.171 E6.53895
G1 X125.791 Y83.852 E6.59882
G1 X125.851 Y84.396 E6.64612
G1 X125.874 Y84.943 E6.69342
G1 X125.875 Y95.014 E7.56337
G1 X125.846 Y95.672 E7.62024
G1 X125.762 Y96.325 E7.67712
G1 X125.602 Y97.056 E7.74177
G1 X125.372 Y97.768 E7.80643
G1 X121.044 Y108.950 E8.84217
G1 X120.855 Y109.397 E8.88409
G1 X119.832 Y111.398 E9.07826
G1 X118.736 Y113.111 E9.25395
G1 X118.316 Y113.697 E9.31621
G1 X117.038 Y115.262 E9.49073
G1 X116.725 Y115.596 E9.53025
G1 X115.324 Y116.983 E9.70057
G1 X113.498 Y118.467 E9.90382
G1 X113.123 Y118.728 E9.94334
G1 X111.494 Y119.777 E10.11068
G1 X109.620 Y120.748 E10.29295
G1 X109.013 Y121.020 E10.35043
G1 X107.190 Y121.715 E10.51899
G1 X106.740 Y121.854 E10.55970
G1 X105.150 Y122.280 E10.70184
G1 X104.357 Y122.449 E10.77188
G1 X102.663 Y122.716 E10.92007
G1 X102.000 Y122.781 E10.97755
G1 X99.934 Y122.874 E11.15623
G1 X97.999 Y122.781 E11.32358
G1 X97.536 Y122.741 E11.36370
G1 X95.220 Y122.370 E11.56632
G1 X93.313 Y121.868 E11.73666
G1 X92.882 Y121.739 E11.77558
G1 X90.687 Y120.893 E11.97878
G1 X88.566 Y119.812 E12.18444
G1 X86.563 Y118.512 E12.39066
G1 X84.743 Y117.043 E12.59272
G1 X84.409 Y116.730 E12.63224
G1 X83.045 Y115.355 E12.79958
G1 X81.706 Y113.724 E12.98186
G1 X81.329 Y113.209 E13.03695
G1 X80.402 Y111.783 E13.18392
G1 X80.002 Y111.093 E13.25277
G1 X79.228 Y109.571 E13.40033
G1 X78.973 Y108.994 E13.45481
G1 X74.636 Y97.791 E14.49254
G1 X74.450 Y97.239 E14.54283
G1 X74.307 Y96.682 E14.59253
G1 X74.175 Y95.882 E14.66256
G1 X74.126 Y95.073 E14.73260
G1 X74.125 Y84.958 E15.60630
G1 X74.142 Y84.480 E15.64761
G1 X74.188 Y84.011 E15.68833
G1 X74.298 Y83.362 E15.74521
G1 X74.463 Y82.718 E15.80268
G1 X74.683 Y82.090 E15.86016
G1 X74.952 Y81.489 E15.91703
G1 X75.270 Y80.912 E15.97391
G1 X75.639 Y80.358 E16.03139
G1 X76.049 Y79.843 E16.08826
G1 X76.502 Y79.362 E16.14534
G1 X76.940 Y79.808 F7800.000
G1 F1080
G1 X77.458 Y79.350 E16.20508
G1 X78.022 Y78.939 E16.26539
G1 X78.624 Y78.584 E16.32571
G1 X79.250 Y78.292 E16.38544
G1 X79.902 Y78.060 E16.44518
G1 X80.579 Y77.891 E16.50549
G1 X81.263 Y77.788 E16.56523
G1 X81.960 Y77.750 E16.62554
G1 X118.319 Y77.757 E19.76633
G1 X118.929 Y77.810 E19.81918
G1 X119.538 Y77.915 E19.87260
G1 X120.130 Y78.070 E19.92545
G1 X120.713 Y78.277 E19.97888
G1 X121.270 Y78.530 E20.03172
G1 X121.810 Y78.832 E20.08515
G1 X122.321 Y79.179 E20.13857
G1 X122.802 Y79.568 E20.19200
G1 X123.261 Y80.012 E20.24714
G1 X123.679 Y80.494 E20.30229
G1 X124.057 Y81.017 E20.35801
G1 X124.384 Y81.565 E20.41315
G1 X124.662 Y82.140 E20.46830
G1 X124.890 Y82.743 E20.52402
G1 X125.063 Y83.365 E20.57974
G1 X125.179 Y83.992 E20.63488
G1 X125.230 Y84.469 E20.67625
G1 X125.250 Y84.954 E20.71819
G1 X125.250 Y95.020 E21.58774
G1 X125.221 Y95.644 E21.64174
G1 X125.140 Y96.257 E21.69516
G1 X124.993 Y96.913 E21.75318
G1 X124.784 Y97.558 E21.81177
G1 X120.462 Y108.724 E22.84606
G1 X120.288 Y109.134 E22.88456
G1 X119.286 Y111.096 E23.07481
G1 X118.212 Y112.771 E23.24669
G1 X117.824 Y113.311 E23.30413
G1 X116.579 Y114.838 E23.47431
G1 X116.284 Y115.153 E23.51166
G1 X114.903 Y116.521 E23.67953
G1 X113.127 Y117.965 E23.87727
G1 X111.171 Y119.242 E24.07903
G1 X109.351 Y120.184 E24.25608
G1 X108.780 Y120.440 E24.31008
G1 X106.983 Y121.125 E24.47625
G1 X106.570 Y121.253 E24.51360
G1 X104.989 Y121.677 E24.65501
G1 X104.260 Y121.832 E24.71934
G1 X102.584 Y122.096 E24.86598
G1 X101.968 Y122.157 E24.91940
G1 X99.941 Y122.250 E25.09472
G1 X97.615 Y122.121 E25.29592
G1 X95.355 Y121.759 E25.49364
G1 X93.080 Y121.146 E25.69713
G1 X90.945 Y120.324 E25.89483
G1 X88.881 Y119.272 E26.09488
G1 X86.933 Y118.009 E26.29548
G1 X85.167 Y116.584 E26.49150
G1 X84.851 Y116.288 E26.52885
G1 X83.506 Y114.933 E26.69386
G1 X82.197 Y113.338 E26.87206
G1 X81.844 Y112.855 E26.92377
G1 X80.926 Y111.443 E27.06924
G1 X80.556 Y110.804 E27.13300
G1 X79.793 Y109.303 E27.27846
G1 X79.558 Y108.774 E27.32844
G1 X75.222 Y97.573 E28.36596
G1 X75.058 Y97.089 E28.41019
G1 X74.927 Y96.593 E28.45443
G1 X74.799 Y95.840 E28.52048
G1 X74.751 Y95.076 E28.58653
G1 X74.750 Y84.967 E29.45984
G1 X74.799 Y84.157 E29.52990
G1 X74.895 Y83.560 E29.58218
G1 X75.042 Y82.966 E29.63503
G1 X75.238 Y82.386 E29.68788
G1 X75.482 Y81.825 E29.74073
G1 X75.773 Y81.287 E29.79358
G1 X76.108 Y80.775 E29.84643
G1 X76.481 Y80.299 E29.89870
G1 X76.897 Y79.850 E29.95154
G1 X77.332 Y80.299 F7800.000
G1 F1080
G1 X77.809 Y79.869 E30.00700
G1 X78.326 Y79.487 E30.06245
G1 X78.876 Y79.158 E30.11791
G1 X79.457 Y78.883 E30.17337
G1 X80.061 Y78.665 E30.22883
G1 X80.683 Y78.507 E30.28428
G1 X81.318 Y78.410 E30.33974
G1 X81.959 Y78.375 E30.39520
G1 X118.273 Y78.381 E33.53218
G1 X118.831 Y78.427 E33.58050
G1 X119.389 Y78.522 E33.62938
G1 X119.930 Y78.663 E33.67770
G1 X120.464 Y78.850 E33.72657
G1 X120.974 Y79.080 E33.77490
G1 X121.468 Y79.355 E33.82377
G1 X121.937 Y79.672 E33.87264
G1 X122.373 Y80.023 E33.92097
G1 X122.799 Y80.433 E33.97203
G1 X123.191 Y80.884 E34.02365
G1 X123.537 Y81.363 E34.07472
G1 X123.842 Y81.876 E34.12634
G1 X124.098 Y82.410 E34.17740
G1 X124.306 Y82.970 E34.22902
G1 X124.462 Y83.540 E34.28009
G1 X124.567 Y84.128 E34.33170
G1 X124.609 Y84.546 E34.36795
G1 X124.625 Y84.965 E34.40420
G1 X124.625 Y95.025 E35.27326
G1 X124.597 Y95.603 E35.32323
G1 X124.518 Y96.183 E35.37374
G1 X124.384 Y96.771 E35.42591
G1 X124.196 Y97.345 E35.47807
G1 X119.720 Y108.873 E36.54629
G1 X118.742 Y110.787 E36.73199
G1 X117.691 Y112.425 E36.90006
G1 X117.336 Y112.921 E36.95278
G1 X116.124 Y114.410 E37.11867
G1 X115.846 Y114.708 E37.15382
G1 X114.487 Y116.055 E37.31916
G1 X112.755 Y117.463 E37.51195
G1 X110.854 Y118.704 E37.70803
G1 X109.075 Y119.623 E37.88104
G1 X108.547 Y119.860 E37.93101
G1 X106.776 Y120.535 E38.09473
G1 X104.833 Y121.071 E38.26880
G1 X104.162 Y121.214 E38.32810
G1 X102.504 Y121.476 E38.47314
G1 X101.941 Y121.532 E38.52201
G1 X99.953 Y121.625 E38.69392
G1 X97.692 Y121.501 E38.88947
G1 X95.489 Y121.149 E39.08224
G1 X93.284 Y120.556 E39.27943
G1 X91.202 Y119.754 E39.47218
G1 X89.196 Y118.733 E39.66664
G1 X87.302 Y117.505 E39.86161
G1 X85.595 Y116.128 E40.05111
G1 X85.297 Y115.850 E40.08626
G1 X83.966 Y114.510 E40.24941
G1 X82.688 Y112.951 E40.42353
G1 X82.361 Y112.505 E40.47130
G1 X81.450 Y111.103 E40.61578
G1 X81.113 Y110.519 E40.67398
G1 X80.357 Y109.035 E40.81789
G1 X80.140 Y108.547 E40.86402
G1 X75.810 Y97.362 E41.90009
G1 X75.664 Y96.935 E41.93909
G1 X75.547 Y96.499 E41.97808
G1 X75.423 Y95.791 E42.04012
G1 X75.376 Y95.075 E42.10216
G1 X75.375 Y84.981 E42.97409
G1 X75.413 Y84.289 E43.03394
G1 X75.496 Y83.742 E43.08171
G1 X75.625 Y83.198 E43.13004
G1 X75.797 Y82.673 E43.17781
G1 X76.016 Y82.158 E43.22614
G1 X76.277 Y81.663 E43.27446
G1 X76.575 Y81.197 E43.32224
G1 X76.915 Y80.753 E43.37056
G1 X77.290 Y80.341 E43.41864
G1 E41.41864 F1800.00000
G92 E0
G1 X90.523 Y91.467 F7800.000
G1 E2.00000 F1800.00000
G1 F900
G1 X91.467 Y90.523 E2.11530
G1 X92.505 Y89.683 E2.23060
G1 X93.624 Y88.956 E2.34591
G1 X94.813 Y88.351 E2.46120
G1 X96.059 Y87.872 E2.57651
G1 X97.349 Y87.527 E2.69181
G1 X98.667 Y87.318 E2.80711
G1 X99.969 Y87.250 E2.91972
G1 X101.331 Y87.318 E3.03753
G1 X102.651 Y87.527 E3.15300
G1 X103.941 Y87.872 E3.26830
G1 X105.187 Y88.351 E3.38361
G1 X106.376 Y88.956 E3.49891
G1 X107.495 Y89.683 E3.61421
G1 X108.533 Y90.523 E3.72951
G1 X109.477 Y91.467 E3.84481
G1 X110.317 Y92.505 E3.96012
G1 X111.044 Y93.624 E4.07542
G1 X111.649 Y94.813 E4.19072
G1 X112.128 Y96.059 E4.30602
G1 X112.473 Y97.349 E4.42132
G1 X112.682 Y98.667 E4.53662
G1 X112.752 Y100.000 E4.65193
G1 X112.682 Y101.333 E4.76723
G1 X112.473 Y102.651 E4.88253
G1 X112.128 Y103.941 E4.99783
G1 X111.649 Y105.187 E5.11314
G1 X111.044 Y106.376 E5.22843
G1 X110.317 Y107.495 E5.34374
G1 X109.477 Y108.533 E5.45904
G1 X108.533 Y109.477 E5.57434
G1 X107.495 Y110.317 E5.68964
G1 X106.376 Y111.044 E5.80495
G1 X105.187 Y111.649 E5.92024
G1 X103.941 Y112.128 E6.03555
G1 X102.651 Y112.473 E6.15085
G1 X101.333 Y112.682 E6.26615
G1 X100.000 Y112.752 E6.38145
G1 X98.667 Y112.682 E6.49676
G1 X97.349 Y112.473 E6.61205
G1 X96.059 Y112.128 E6.72736
G1 X94.813 Y111.649 E6.84266
G1 X93.624 Y111.044 E6.95796
G1 X92.505 Y110.317 E7.07326
G1 X91.467 Y109.477 E7.18857
G1 X90.523 Y108.533 E7.30387
G1 X89.683 Y107.495 E7.41917
G1 X88.956 Y106.376 E7.53447
G1 X88.351 Y105.187 E7.64977
G1 X87.872 Y103.941 E7.76499
G1 X87.529 Y102.665 E7.87914
G1 X87.318 Y101.333 E7.99568
G1 X87.248 Y100.000 E8.11099
G1 X87.318 Y98.667 E8.22629
G1 X87.527 Y97.349 E8.34159
G1 X87.872 Y96.059 E8.45689
G1 X88.351 Y94.813 E8.57219
G1 X88.956 Y93.624 E8.68749
G1 X89.683 Y92.505 E8.80280
G1 X90.486 Y91.514 E8.91292
G1 X90.971 Y91.907 F7800.000
G1 F900
G1 X91.886 Y90.988 E9.02490
G1 X92.872 Y90.190 E9.13454
G1 X93.937 Y89.498 E9.24419
G1 X95.068 Y88.922 E9.35383
G1 X96.253 Y88.467 E9.46348
G1 X97.479 Y88.139 E9.57312
G1 X98.732 Y87.940 E9.68276
G1 X99.970 Y87.875 E9.78978
G1 X101.266 Y87.940 E9.90193
G1 X102.521 Y88.139 E10.01168
G1 X103.747 Y88.467 E10.12132
G1 X104.932 Y88.922 E10.23097
G1 X106.063 Y89.498 E10.34061
G1 X107.128 Y90.190 E10.45026
G1 X108.114 Y90.988 E10.55990
G1 X109.012 Y91.886 E10.66954
G1 X109.810 Y92.872 E10.77919
G1 X110.502 Y93.937 E10.88883
G1 X111.078 Y95.068 E10.99847
G1 X111.533 Y96.253 E11.10812
G1 X111.861 Y97.479 E11.21777
G1 X112.060 Y98.732 E11.32741
G1 X112.126 Y100.000 E11.43705
G1 X112.060 Y101.268 E11.54670
G1 X111.861 Y102.521 E11.65634
G1 X111.533 Y103.747 E11.76598
G1 X111.078 Y104.932 E11.87563
G1 X110.502 Y106.063 E11.98527
G1 X109.810 Y107.128 E12.09491
G1 X109.012 Y108.114 E12.20456
G1 X108.114 Y109.012 E12.31420
G1 X107.128 Y109.810 E12.42385
G1 X106.063 Y110.502 E12.53349
G1 X104.932 Y111.078 E12.64313
G1 X103.747 Y111.533 E12.75278
G1 X102.521 Y111.861 E12.86242
G1 X101.268 Y112.060 E12.97206
G1 X100.000 Y112.126 E13.08171
G1 X98.732 Y112.060 E13.19135
G1 X97.479 Y111.861 E13.30100
G1 X96.253 Y111.533 E13.41064
G1 X95.068 Y111.078 E13.52029
G1 X93.937 Y110.502 E13.62993
G1 X92.872 Y109.810 E13.73957
G1 X91.886 Y109.012 E13.84922
G1 X90.988 Y108.114 E13.95886
G1 X90.190 Y107.128 E14.06850
G1 X89.498 Y106.063 E14.17815
G1 X88.922 Y104.932 E14.28779
G1 X88.467 Y103.748 E14.39739
G1 X88.141 Y102.535 E14.50587
G1 X87.940 Y101.268 E14.61673
G1 X87.874 Y100.000 E14.72637
G1 X87.940 Y98.732 E14.83602
G1 X88.139 Y97.479 E14.94566
G1 X88.467 Y96.253 E15.05530
G1 X88.922 Y95.068 E15.16495
G1 X89.498 Y93.937 E15.27459
G1 X90.190 Y92.872 E15.38424
G1 X90.934 Y91.954 E15.48634
G1 X91.419 Y92.347 F7800.000
G1 F630
G1 X92.305 Y91.453 E15.59501
G1 X93.240 Y90.696 E15.69900
G1 X94.250 Y90.040 E15.80299
G1 X95.322 Y89.494 E15.90697
G1 X96.446 Y89.062 E16.01096
G1 X97.609 Y88.751 E16.11494
G1 X98.798 Y88.563 E16.21893
G1 X99.970 Y88.501 E16.32035
G1 X101.202 Y88.562 E16.42685
G1 X102.391 Y88.751 E16.53087
G1 X103.554 Y89.062 E16.63486
G1 X104.678 Y89.494 E16.73885
G1 X105.750 Y90.040 E16.84283
G1 X106.760 Y90.696 E16.94682
G1 X107.695 Y91.453 E17.05080
G1 X108.547 Y92.305 E17.15479
G1 X109.304 Y93.240 E17.25877
G1 X109.960 Y94.250 E17.36276
G1 X110.506 Y95.322 E17.46674
G1 X110.938 Y96.446 E17.57073
G1 X111.249 Y97.609 E17.67472
G1 X111.437 Y98.798 E17.77870
G1 X111.500 Y100.000 E17.88269
G1 X111.437 Y101.202 E17.98668
G1 X111.249 Y102.391 E18.09066
G1 X110.938 Y103.554 E18.19465
G1 X110.506 Y104.678 E18.29863
G1 X109.960 Y105.750 E18.40262
G1 X109.304 Y106.760 E18.50660
G1 X108.547 Y107.695 E18.61059
G1 X107.695 Y108.547 E18.71458
G1 X106.760 Y109.304 E18.81856
G1 X105.750 Y109.960 E18.92255
G1 X104.678 Y110.506 E19.02653
G1 X103.554 Y110.938 E19.13052
G1 X102.391 Y111.249 E19.23451
G1 X101.202 Y111.437 E19.33849
G1 X100.000 Y111.500 E19.44248
G1 X98.798 Y111.437 E19.54646
G1 X97.609 Y111.249 E19.65045
G1 X96.446 Y110.938 E19.75443
G1 X95.322 Y110.506 E19.85842
G1 X94.250 Y109.960 E19.96241
G1 X93.240 Y109.304 E20.06639
G1 X92.305 Y108.547 E20.17038
G1 X91.453 Y107.695 E20.27436
G1 X90.696 Y106.760 E20.37835
G1 X90.040 Y105.750 E20.48234
G1 X89.494 Y104.678 E20.58632
G1 X89.062 Y103.554 E20.69029
G1 X88.753 Y102.405 E20.79312
G1 X88.563 Y101.202 E20.89829
G1 X88.500 Y100.000 E21.00227
G1 X88.563 Y98.798 E21.10626
G1 X88.751 Y97.609 E21.21024
G1 X89.062 Y96.446 E21.31423
G1 X89.494 Y95.322 E21.41822
G1 X90.040 Y94.250 E21.52220
G1 X90.696 Y93.240 E21.62619
G1 X91.381 Y92.394 E21.72028
G1 X91.294 Y91.967 F7800.000
G1 X86.755 Y86.600 F7800.000
G1 F900
G1 X116.400 Y86.600 E24.28116
G1 X116.400 Y94.701 E24.98098
G1 X112.241 Y105.447 E25.97639
G1 X111.603 Y106.699 E26.09773
G1 X110.839 Y107.875 E26.21887
G1 X109.957 Y108.965 E26.34002
G1 X108.965 Y109.957 E26.46116
G1 X107.875 Y110.839 E26.58231
G1 X106.699 Y111.603 E26.70345
G1 X105.449 Y112.240 E26.82459
G1 X104.140 Y112.742 E26.94573
G1 X102.786 Y113.105 E27.06688
G1 X101.400 Y113.325 E27.18802
G1 X100.000 Y113.398 E27.30917
G1 X98.600 Y113.325 E27.43031
G1 X97.214 Y113.105 E27.55145
G1 X95.860 Y112.742 E27.67260
G1 X94.551 Y112.240 E27.79374
G1 X93.301 Y111.603 E27.91488
G1 X92.125 Y110.839 E28.03603
G1 X91.035 Y109.957 E28.15717
G1 X90.043 Y108.965 E28.27831
G1 X89.161 Y107.875 E28.39946
G1 X88.397 Y106.699 E28.52060
G1 X87.759 Y105.447 E28.64194
G1 X83.600 Y94.701 E29.63735
G1 X83.600 Y86.600 E30.33717
G1 X86.695 Y86.600 E30.60452
G1 X86.695 Y85.975 F7800.000
G1 F900
G1 X117.025 Y85.975 E33.22456
G1 X117.025 Y94.818 E33.98844
G1 X112.812 Y105.703 E34.99669
G1 X112.145 Y107.012 E35.12361
G1 X111.346 Y108.243 E35.25041
G1 X110.422 Y109.384 E35.37721
G1 X109.384 Y110.422 E35.50401
G1 X108.243 Y111.346 E35.63082
G1 X107.012 Y112.145 E35.75762
G1 X105.704 Y112.811 E35.88442
G1 X104.334 Y113.337 E36.01122
G1 X102.916 Y113.717 E36.13802
G1 X101.466 Y113.947 E36.26482
G1 X100.000 Y114.024 E36.39162
G1 X98.534 Y113.947 E36.51843
G1 X97.084 Y113.717 E36.64523
G1 X95.666 Y113.337 E36.77203
G1 X94.296 Y112.811 E36.89883
G1 X92.988 Y112.145 E37.02563
G1 X91.757 Y111.346 E37.15243
G1 X90.616 Y110.422 E37.27923
G1 X89.578 Y109.384 E37.40603
G1 X88.654 Y108.243 E37.53284
G1 X87.855 Y107.012 E37.65964
G1 X87.188 Y105.703 E37.78656
G1 X82.975 Y94.818 E38.79480
G1 X82.975 Y85.975 E39.55869
G1 X86.635 Y85.975 E39.87483
G1 X86.635 Y85.350 F7800.000
G1 F630
G1 X117.650 Y85.350 E42.55403
G1 X117.650 Y94.935 E43.38198
G1 X113.383 Y105.958 E44.40307
G1 X112.687 Y107.325 E44.53557
G1 X111.852 Y108.611 E44.66803
G1 X110.887 Y109.802 E44.80049
G1 X109.802 Y110.887 E44.93295
G1 X108.611 Y111.852 E45.06541
G1 X107.325 Y112.687 E45.19787
G1 X105.959 Y113.383 E45.33032
G1 X104.527 Y113.932 E45.46278
G1 X103.046 Y114.329 E45.59524
G1 X101.531 Y114.569 E45.72770
G1 X100.000 Y114.650 E45.86016
G1 X98.469 Y114.569 E45.99262
G1 X96.954 Y114.329 E46.12508
G1 X95.473 Y113.932 E46.25754
G1 X94.041 Y113.383 E46.39000
G1 X92.675 Y112.687 E46.52246
