; generated by Slic3r 1.3.0-dev on 2016-01-31 at 14:14:29

; external perimeters extrusion width = 0.50mm
; perimeters extrusion width = 0.85mm
; infill extrusion width = 1.02mm
; solid infill extrusion width = 0.85mm
; top infill extrusion width = 0.85mm

M107
M104 S200 ; set temperature
G28 ; home all axes
G1 Z5 F5000 ; lift nozzle

M109 S200 ; set temperature and wait for it to be reached
G21 ; set units to millimeters
G90 ; use absolute coordinates
M82 ; use absolute distances for extrusion
G92 E0
G1 Z0.350 F7800.000
G1 E-2.00000 F2400.00000
G92 E0
G1 X33.227 Y29.368 F7800.000
G1 E2.00000 F2400.00000
G1 F1800
G1 X34.199 Y28.560 E2.11489
G1 X34.614 Y28.272 E2.16083
G1 X36.785 Y27.248 E2.37906
G1 X38.747 Y26.978 E2.55923
G1 X61.270 Y26.978 E4.60716
G1 X63.636 Y27.375 E4.82538
G1 X65.403 Y28.272 E5.00554
G1 X65.818 Y28.560 E5.05148
G1 X67.536 Y30.236 E5.26971
G1 X68.190 Y31.317 E5.38460
G1 X68.280 Y31.498 E5.40300
G1 X68.842 Y33.085 E5.55606
G1 X68.911 Y33.388 E5.58431
G1 X69.093 Y35.000 E5.73185
G1 X69.093 Y75.000 E9.36904
G1 X68.911 Y76.613 E9.51660
G1 X68.842 Y76.915 E9.54484
G1 X68.280 Y78.502 E9.69790
G1 X68.190 Y78.684 E9.71629
G1 X66.790 Y80.632 E9.93452
G1 X65.818 Y81.440 E10.04940
G1 X65.403 Y81.728 E10.09534
G1 X63.232 Y82.751 E10.31357
G1 X61.270 Y83.022 E10.49373
G1 X38.747 Y83.022 E12.54166
G1 X36.381 Y82.625 E12.75989
G1 X34.614 Y81.728 E12.94006
G1 X34.199 Y81.440 E12.98600
G1 X32.481 Y79.764 E13.20422
G1 X31.827 Y78.683 E13.31910
G1 X31.737 Y78.502 E13.33750
G1 X31.175 Y76.915 E13.49057
G1 X31.106 Y76.612 E13.51881
G1 X30.924 Y75.000 E13.66635
G1 X30.924 Y35.000 E17.30354
G1 X31.106 Y33.388 E17.45107
G1 X31.175 Y33.085 E17.47931
G1 X31.737 Y31.498 E17.63238
G1 X31.827 Y31.317 E17.65078
G1 X33.184 Y29.429 E17.86219
G1 X34.555 Y29.073 F7800.000
G1 F1800
G1 X34.970 Y28.785 E17.90812
G1 X37.052 Y27.823 E18.11667
G1 X38.747 Y27.603 E18.27213
G1 X61.270 Y27.603 E20.32006
G1 X63.528 Y28.000 E20.52860
G1 X65.047 Y28.785 E20.68405
G1 X65.462 Y29.073 E20.72999
G1 X67.630 Y31.592 E21.03219
G1 X67.719 Y31.774 E21.05059
G1 X68.233 Y33.224 E21.19046
G1 X68.302 Y33.527 E21.21870
G1 X68.468 Y35.000 E21.35353
G1 X68.468 Y75.000 E24.99072
G1 X68.302 Y76.474 E25.12556
G1 X68.233 Y76.776 E25.15380
G1 X67.719 Y78.226 E25.29367
G1 X67.630 Y78.408 E25.31206
G1 X65.462 Y80.927 E25.61425
G1 X65.047 Y81.215 E25.66019
G1 X62.965 Y82.177 E25.86873
G1 X61.270 Y82.397 E26.02419
G1 X38.747 Y82.397 E28.07212
G1 X36.489 Y82.000 E28.28066
G1 X34.970 Y81.215 E28.43613
G1 X34.555 Y80.927 E28.48206
G1 X32.387 Y78.408 E28.78425
G1 X32.298 Y78.226 E28.80265
G1 X31.784 Y76.776 E28.94252
G1 X31.715 Y76.473 E28.97077
G1 X31.549 Y75.000 E29.10559
G1 X31.549 Y35.000 E32.74277
G1 X31.715 Y33.527 E32.87759
G1 X31.784 Y33.224 E32.90584
G1 X32.298 Y31.774 E33.04571
G1 X32.387 Y31.592 E33.06411
G1 X34.506 Y29.130 E33.35949
G1 E31.35949 F2400.00000
G92 E0
G1 X37.085 Y32.719 F7800.000
G1 E2.00000 F2400.00000
G1 F1800
G1 X37.775 Y32.240 E2.07634
G1 X38.413 Y32.040 E2.13714
G1 X61.604 Y32.040 E4.24586
G1 X62.242 Y32.240 E4.30666
G1 F1800
G1 X63.161 Y32.878 E4.40834
G1 X63.524 Y33.300 E4.45904
G1 X63.793 Y33.846 E4.51436
G1 X63.878 Y34.086 E4.53753
G1 X64.003 Y34.633 E4.58852
G1 X64.030 Y34.877 E4.61085
G1 X64.030 Y75.123 E8.27036
G1 X64.003 Y75.367 E8.29269
G1 X63.878 Y75.914 E8.34368
G1 X63.793 Y76.154 E8.36685
G1 X63.524 Y76.700 E8.42217
G1 X63.161 Y77.122 E8.47286
G1 X62.242 Y77.760 E8.57455
G1 X61.604 Y77.960 E8.63534
G1 X38.413 Y77.960 E10.74407
G1 X37.775 Y77.760 E10.80487
G1 X36.856 Y77.122 E10.90655
G1 X36.493 Y76.700 E10.95724
G1 X36.224 Y76.154 E11.01257
G1 X36.139 Y75.913 E11.03574
G1 X36.014 Y75.367 E11.08673
G1 X35.987 Y75.123 E11.10905
G1 X35.987 Y34.877 E14.76856
G1 X36.014 Y34.633 E14.79088
G1 X36.139 Y34.087 E14.84188
G1 X36.224 Y33.846 E14.86504
G1 X36.493 Y33.300 E14.92037
G1 X36.856 Y32.878 E14.97106
G1 X37.024 Y32.762 E14.98959
G1 X37.442 Y33.232 F7800.000
G1 F1800
G1 X38.053 Y32.808 E15.05724
G1 X38.509 Y32.665 E15.10067
G1 X61.508 Y32.665 E17.19203
G1 F1800
G1 X61.964 Y32.808 E17.23545
G1 X62.739 Y33.346 E17.32121
G1 X62.999 Y33.648 E17.35742
G1 X63.216 Y34.089 E17.40220
G1 X63.277 Y34.261 E17.41874
G1 X63.386 Y34.738 E17.46324
G1 X63.405 Y34.912 E17.47918
G1 X63.405 Y75.088 E21.13232
G1 X63.386 Y75.262 E21.14826
G1 X63.277 Y75.739 E21.19276
G1 X63.216 Y75.911 E21.20930
G1 X62.999 Y76.352 E21.25408
G1 X62.739 Y76.654 E21.29029
G1 X61.964 Y77.192 E21.37604
G1 X61.508 Y77.335 E21.41947
G1 X38.509 Y77.335 E23.51083
G1 X38.053 Y77.192 E23.55425
G1 X37.278 Y76.654 E23.64001
G1 X37.018 Y76.352 E23.67622
G1 X36.801 Y75.911 E23.72099
G1 X36.740 Y75.739 E23.73754
G1 X36.631 Y75.262 E23.78203
G1 X36.612 Y75.088 E23.79798
G1 X36.612 Y34.912 E27.45111
G1 X36.631 Y34.738 E27.46705
G1 X36.740 Y34.261 E27.51155
G1 X36.801 Y34.089 E27.52810
G1 X37.018 Y33.648 E27.57287
G1 X37.278 Y33.346 E27.60908
G1 X37.380 Y33.275 E27.62037
G1 X37.798 Y33.746 F7800.000
G1 F1800
G1 X38.331 Y33.376 E27.67933
G1 X38.604 Y33.290 E27.70539
G1 X61.413 Y33.290 E29.77937
G1 X61.686 Y33.376 E29.80543
G1 F1800
G1 X62.317 Y33.814 E29.87526
G1 X62.473 Y33.995 E29.89699
G1 X62.676 Y34.435 E29.94109
G1 X62.780 Y34.947 E29.98860
G1 X62.780 Y75.053 E33.63535
G1 X62.676 Y75.565 E33.68287
G1 X62.473 Y76.005 E33.72697
G1 X62.317 Y76.186 E33.74869
G1 X61.686 Y76.624 E33.81852
G1 X61.413 Y76.710 E33.84458
G1 X38.604 Y76.710 E35.91856
G1 X38.331 Y76.624 E35.94462
G1 X37.700 Y76.186 E36.01445
G1 X37.544 Y76.005 E36.03617
G1 X37.341 Y75.565 E36.08027
G1 X37.237 Y75.053 E36.12779
G1 X37.237 Y34.947 E39.77454
G1 X37.341 Y34.435 E39.82205
G1 X37.378 Y34.333 E39.83198
G1 X37.544 Y33.995 E39.86620
G1 X37.736 Y33.788 E39.89186
G1 X38.154 Y34.259 F7800.000
G1 F1800
G1 X38.609 Y33.944 E39.94214
G1 X38.700 Y33.915 E39.95083
G1 X61.317 Y33.915 E42.00745
G1 F1800
G1 X61.409 Y33.944 E42.01613
G1 X61.896 Y34.282 E42.07003
G1 X61.947 Y34.342 E42.07727
G1 X62.074 Y34.610 E42.10424
G1 X62.155 Y34.982 E42.13890
G1 X62.155 Y75.018 E45.77928
G1 X62.074 Y75.390 E45.81394
G1 X61.947 Y75.658 E45.84090
G1 X61.896 Y75.718 E45.84815
G1 X61.409 Y76.056 E45.90205
G1 X61.317 Y76.085 E45.91073
G1 X38.700 Y76.085 E47.96735
G1 X38.609 Y76.056 E47.97603
G1 X38.122 Y75.718 E48.02994
G1 X38.070 Y75.658 E48.03718
G1 X37.943 Y75.390 E48.06414
G1 X37.862 Y75.018 E48.09880
G1 X37.862 Y34.982 E51.73918
G1 X37.943 Y34.610 E51.77385
G1 X38.099 Y34.308 E51.80472
G1 E49.80472 F2400.00000
G92 E0
G1 X60.243 Y74.173 F7800.000
G1 E2.00000 F2400.00000
G1 F1800
G1 X39.774 Y74.173 E3.86127
G1 X39.774 Y35.827 E7.34800
G1 X60.243 Y35.827 E9.20928
G1 X60.243 Y74.098 E12.68919
G1 X60.868 Y74.798 F7800.000
G1 F1800
G1 X39.149 Y74.798 E14.66410
G1 X39.149 Y35.202 E18.26447
G1 X60.868 Y35.202 E20.23939
G1 X60.868 Y74.723 E23.83294
G1 X61.411 Y75.249 F7800.000
G1 F1800
G1 X61.160 Y75.422 E23.86067
G1 X38.857 Y75.422 E25.88867
G1 X38.606 Y75.249 E25.91640
G1 X38.575 Y75.185 E25.92283
G1 X38.524 Y74.961 E25.94377
G1 X38.524 Y35.039 E29.57379
G1 X38.575 Y34.815 E29.59473
G1 X38.606 Y34.751 E29.60116
G1 X38.857 Y34.578 E29.62889
G1 X61.160 Y34.578 E31.65690
G1 X61.411 Y34.751 E31.68463
G1 X61.442 Y34.815 E31.69106
G1 X61.493 Y35.039 E31.71200
G1 X61.493 Y74.961 E35.34202
G1 X61.443 Y75.181 E35.36257
G1 X61.108 Y75.212 F7800.000
G1 X40.152 Y73.489 F7800.000
G1 F1800
G1 X40.458 Y73.794 E35.40189
G1 X41.343 Y73.794 E35.48262
G1 X40.152 Y72.603 E35.63612
G1 X40.152 Y71.717 E35.71685
G1 X42.229 Y73.794 E35.98452
G1 X43.115 Y73.794 E36.06525
G1 X40.152 Y70.832 E36.44709
G1 X40.152 Y69.946 E36.52782
G1 X44.001 Y73.794 E37.02383
G1 X44.886 Y73.794 E37.10456
G1 X40.152 Y69.060 E37.71474
G1 X40.152 Y68.174 E37.79548
G1 X45.772 Y73.794 E38.51983
G1 X46.658 Y73.794 E38.60056
G1 X40.152 Y67.289 E39.43909
G1 X40.152 Y66.403 E39.51982
G1 X47.544 Y73.794 E40.47252
G1 X48.430 Y73.794 E40.55325
G1 X40.152 Y65.517 E41.62012
G1 X40.152 Y64.631 E41.70085
G1 X49.315 Y73.794 E42.88189
G1 X50.201 Y73.794 E42.96263
G1 X40.152 Y63.745 E44.25784
G1 X40.152 Y62.860 E44.33857
G1 X51.087 Y73.794 E45.74796
G1 X51.973 Y73.794 E45.82869
G1 X40.152 Y61.974 E47.35225
G1 X40.152 Y61.088 E47.43298
G1 X52.859 Y73.794 E49.07071
G1 X53.744 Y73.794 E49.15144
G1 X40.152 Y60.202 E50.90334
G1 X40.152 Y59.316 E50.98407
G1 X54.630 Y73.794 E52.85015
G1 X55.516 Y73.794 E52.93088
G1 X40.152 Y58.431 E54.91112
G1 X40.152 Y57.545 E54.99185
G1 X56.402 Y73.794 E57.08627
G1 X57.287 Y73.794 E57.16700
G1 X40.152 Y56.659 E59.37559
G1 X40.152 Y55.773 E59.45632
G1 X58.173 Y73.794 E61.77908
G1 X59.059 Y73.794 E61.85982
G1 X40.152 Y54.888 E64.29675
G1 X40.152 Y54.002 E64.37748
G1 X59.865 Y73.714 E66.91826
G1 X59.865 Y72.828 E66.99899
G1 X40.152 Y53.116 E69.53977
G1 X40.152 Y52.230 E69.62050
G1 X59.865 Y71.942 E72.16128
G1 X59.865 Y71.057 E72.24201
G1 X40.152 Y51.344 E74.78279
G1 X40.152 Y50.459 E74.86352
G1 X59.865 Y70.171 E77.40429
G1 X59.865 Y69.285 E77.48503
G1 X40.152 Y49.573 E80.02580
G1 X40.152 Y48.687 E80.10653
G1 X59.865 Y68.399 E82.64731
G1 X59.865 Y67.513 E82.72804
G1 X40.152 Y47.801 E85.26882
G1 X40.152 Y46.915 E85.34955
G1 X59.865 Y66.628 E87.89033
G1 X59.865 Y65.742 E87.97106
G1 X40.152 Y46.030 E90.51184
G1 X40.152 Y45.144 E90.59257
G1 X59.865 Y64.856 E93.13335
G1 X59.865 Y63.970 E93.21408
G1 X40.152 Y44.258 E95.75486
G1 X40.152 Y43.372 E95.83559
G1 X59.865 Y63.085 E98.37637
G1 X59.865 Y62.199 E98.45710
G1 X40.152 Y42.487 E100.99787
G1 X40.152 Y41.601 E101.07861
G1 X59.865 Y61.313 E103.61938
G1 X59.865 Y60.427 E103.70012
G1 X40.152 Y40.715 E106.24089
G1 X40.152 Y39.829 E106.32162
G1 X59.865 Y59.541 E108.86240
G1 X59.865 Y58.656 E108.94313
G1 X40.152 Y38.943 E111.48391
G1 X40.152 Y38.058 E111.56464
G1 X59.865 Y57.770 E114.10542
G1 X59.865 Y56.884 E114.18615
G1 X40.152 Y37.172 E116.72693
G1 X40.152 Y36.286 E116.80766
G1 X59.865 Y55.998 E119.34844
G1 X59.865 Y55.112 E119.42917
G1 X40.958 Y36.206 E121.86611
G1 X41.844 Y36.206 E121.94684
G1 X59.865 Y54.227 E124.26960
G1 X59.865 Y53.341 E124.35033
G1 X42.730 Y36.206 E126.55893
G1 X43.615 Y36.206 E126.63966
G1 X59.865 Y52.455 E128.73408
G1 X59.865 Y51.569 E128.81481
G1 X44.501 Y36.206 E130.79506
G1 X45.387 Y36.206 E130.87579
G1 X59.865 Y50.684 E132.74187
G1 X59.865 Y49.798 E132.82260
G1 X46.273 Y36.206 E134.57451
G1 X47.159 Y36.206 E134.65524
G1 X59.865 Y48.912 E136.29297
G1 X59.865 Y48.026 E136.37371
G1 X48.044 Y36.206 E137.89727
G1 X48.930 Y36.206 E137.97800
G1 X59.865 Y47.140 E139.38739
G1 X59.865 Y46.255 E139.46812
G1 X49.816 Y36.206 E140.76334
G1 X50.702 Y36.206 E140.84407
G1 X59.865 Y45.369 E142.02512
G1 X59.865 Y44.483 E142.10585
G1 X51.587 Y36.206 E143.17273
G1 X52.473 Y36.206 E143.25346
G1 X59.865 Y43.597 E144.20616
G1 X59.865 Y42.711 E144.28689
G1 X53.359 Y36.206 E145.12542
G1 X54.245 Y36.206 E145.20615
G1 X59.865 Y41.826 E145.93051
G1 X59.865 Y40.940 E146.01124
G1 X55.131 Y36.206 E146.62143
G1 X56.016 Y36.206 E146.70216
G1 X59.865 Y40.054 E147.19818
G1 X59.865 Y39.168 E147.27891
G1 X56.902 Y36.206 E147.66075
G1 X57.788 Y36.206 E147.74149
G1 X59.865 Y38.283 E148.00916
G1 X59.865 Y37.397 E148.08989
G1 X58.674 Y36.206 E148.24339
G1 X59.560 Y36.206 E148.32412
G1 X59.865 Y36.511 E148.36345
G1 Z0.550 F7800.000
G1 X60.591 Y74.542 F7800.000
G1 F3600
G1 X39.426 Y74.542 E149.78376
G1 X39.426 Y35.458 E152.40671
G1 X60.591 Y35.458 E153.82703
G1 X60.591 Y74.467 E156.44494
G1 X38.762 Y75.276 F7800.000
G1 F3600
G1 X38.639 Y75.091 E156.45982
G1 X38.619 Y74.942 E156.46994
G1 X38.619 Y35.058 E159.14650
G1 X38.639 Y34.909 E159.15662
G1 X38.762 Y34.724 E159.17150
G1 X38.932 Y34.650 E159.18389
G1 X61.086 Y34.650 E160.67062
G1 X61.255 Y34.724 E160.68301
G1 X61.378 Y34.909 E160.69789
G1 X61.398 Y35.058 E160.70801
G1 X61.398 Y74.942 E163.38457
G1 X61.378 Y75.091 E163.39469
G1 X61.255 Y75.276 E163.40957
G1 X61.086 Y75.350 E163.42196
G1 X38.931 Y75.350 E164.90870
G1 X38.831 Y75.306 E164.91605
G1 X38.383 Y75.800 F7800.000
G1 F1800
G1 X38.301 Y75.722 E164.92035
G1 X38.032 Y75.320 E164.93873
G1 X37.987 Y74.984 E164.95164
G1 X37.987 Y35.016 E166.47064
G1 X38.032 Y34.680 E166.48355
G1 X38.301 Y34.278 E166.50194
G1 X38.383 Y34.200 E166.50623
G1 X38.800 Y34.018 E166.52351
G1 X61.217 Y34.018 E167.37553
G1 X61.634 Y34.200 E167.39281
G1 X61.716 Y34.278 E167.39710
G1 X61.985 Y34.680 E167.41549
G1 X62.030 Y35.016 E167.42840
G1 X62.030 Y74.984 E168.94740
G1 X61.985 Y75.320 E168.96031
G1 X61.716 Y75.722 E168.97869
G1 X61.634 Y75.800 E168.98299
G1 X61.217 Y75.982 E169.00027
G1 X38.800 Y75.982 E169.85229
G1 X38.452 Y75.830 E169.86672
G1 X38.381 Y75.687 F7800.000
G1 E167.86672 F2400.00000
G92 E0
G1 X59.714 Y74.048 F7800.000
G1 E2.00000 F2400.00000
G1 F1200
G1 X60.096 Y73.665 E2.03657
G1 X60.096 Y72.515 E2.11434
G1 X58.563 Y74.048 E2.26090
G1 X57.413 Y74.048 E2.33867
G1 X60.096 Y71.365 E2.59522
G1 X60.096 Y70.215 E2.67299
G1 X56.263 Y74.048 E3.03952
G1 X55.113 Y74.048 E3.11729
G1 X60.096 Y69.065 E3.59381
G1 X60.096 Y67.915 E3.67158
G1 X53.963 Y74.048 E4.25809
G1 X52.813 Y74.048 E4.33586
G1 X60.096 Y66.765 E5.03235
G1 X60.096 Y65.615 E5.11012
G1 X51.663 Y74.048 E5.91660
G1 X50.513 Y74.048 E5.99437
G1 X60.096 Y64.464 E6.91084
G1 X60.096 Y63.314 E6.98861
G1 X49.363 Y74.048 E8.01506
G1 X48.212 Y74.048 E8.09283
G1 X60.096 Y62.164 E9.22927
G1 X60.096 Y61.014 E9.30704
G1 X47.062 Y74.048 E10.55346
G1 X45.912 Y74.048 E10.63124
G1 X60.096 Y59.864 E11.98765
G1 X60.096 Y58.714 E12.06542
G1 X44.762 Y74.048 E13.53182
G1 X43.612 Y74.048 E13.60959
G1 X60.096 Y57.564 E15.18597
G1 X60.096 Y56.414 E15.26374
G1 X42.462 Y74.048 E16.95011
G1 X41.312 Y74.048 E17.02789
G1 X60.096 Y55.264 E18.82424
G1 X60.096 Y54.113 E18.90202
G1 X40.162 Y74.048 E20.80836
G1 X39.921 Y73.138 E20.87198
G1 X60.096 Y52.963 E22.80132
G1 X60.096 Y51.813 E22.87910
G1 X39.921 Y71.988 E24.80844
G1 X39.921 Y70.838 E24.88621
G1 X60.096 Y50.663 E26.81556
G1 X60.096 Y49.513 E26.89333
G1 X39.921 Y69.688 E28.82267
G1 X39.921 Y68.538 E28.90044
G1 X60.096 Y48.363 E30.82979
G1 X60.096 Y47.213 E30.90756
G1 X39.921 Y67.388 E32.83690
G1 X39.921 Y66.237 E32.91467
G1 X60.096 Y46.063 E34.84402
G1 X60.096 Y44.913 E34.92179
G1 X39.921 Y65.087 E36.85113
G1 X39.921 Y63.937 E36.92890
G1 X60.096 Y43.762 E38.85825
G1 X60.096 Y42.612 E38.93602
G1 X39.921 Y62.787 E40.86536
G1 X39.921 Y61.637 E40.94314
G1 X60.096 Y41.462 E42.87248
G1 X60.096 Y40.312 E42.95025
G1 X39.921 Y60.487 E44.87959
G1 X39.921 Y59.337 E44.95737
G1 X60.096 Y39.162 E46.88671
G1 X60.096 Y38.012 E46.96448
G1 X39.921 Y58.187 E48.89383
G1 X39.921 Y57.037 E48.97160
G1 X60.096 Y36.862 E50.90094
G1 X59.855 Y35.952 E50.96456
G1 X39.921 Y55.886 E52.87090
G1 X39.921 Y54.736 E52.94867
G1 X58.705 Y35.952 E54.74502
G1 X57.555 Y35.952 E54.82280
G1 X39.921 Y53.586 E56.50916
G1 X39.921 Y52.436 E56.58693
G1 X56.405 Y35.952 E58.16331
G1 X55.255 Y35.952 E58.24109
G1 X39.921 Y51.286 E59.70748
G1 X39.921 Y50.136 E59.78525
G1 X54.105 Y35.952 E61.14166
G1 X52.955 Y35.952 E61.21943
G1 X39.921 Y48.986 E62.46585
G1 X39.921 Y47.836 E62.54362
G1 X51.805 Y35.952 E63.68005
G1 X50.655 Y35.952 E63.75782
G1 X39.921 Y46.686 E64.78427
G1 X39.921 Y45.536 E64.86204
G1 X49.504 Y35.952 E65.77850
G1 X48.354 Y35.952 E65.85627
G1 X39.921 Y44.385 E66.66275
G1 X39.921 Y43.235 E66.74052
G1 X47.204 Y35.952 E67.43700
G1 X46.054 Y35.952 E67.51478
G1 X39.921 Y42.085 E68.10128
G1 X39.921 Y40.935 E68.17905
G1 X44.904 Y35.952 E68.65556
G1 X43.754 Y35.952 E68.73333
G1 X39.921 Y39.785 E69.09986
G1 X39.921 Y38.635 E69.17763
G1 X42.604 Y35.952 E69.43417
G1 X41.454 Y35.952 E69.51194
G1 X39.921 Y37.485 E69.65850
G1 X39.921 Y36.335 E69.73627
G1 X40.304 Y35.952 E69.77284
G1 Z0.750 F7800.000
G1 X39.226 Y74.766 F7800.000
G1 F3600
G1 X39.226 Y35.234 E72.42579
G1 X60.791 Y35.234 E73.87295
G1 X60.791 Y74.766 E76.52591
G1 X39.301 Y74.766 E77.96803
G1 X38.715 Y75.505 F7800.000
G1 F3600
G1 X38.514 Y75.316 E77.98655
G1 X38.445 Y75.138 E77.99938
G1 X38.419 Y74.942 E78.01261
G1 X38.419 Y35.058 E80.68921
G1 X38.445 Y34.862 E80.70244
G1 X38.514 Y34.684 E80.71527
G1 X38.715 Y34.495 E80.73379
G1 X38.902 Y34.427 E80.74718
G1 X61.126 Y34.427 E82.23857
G1 X61.287 Y34.481 E82.24999
G1 X61.503 Y34.684 E82.26988
